; generated by PrusaSlicer 2.3.1+win64 on 2022-03-11 at 12:59:39 UTC

; 

; external perimeters extrusion width = 0.45mm
; perimeters extrusion width = 0.45mm
; infill extrusion width = 0.45mm
; solid infill extrusion width = 0.45mm
; top infill extrusion width = 0.40mm
; first layer extrusion width = 0.42mm

M73 P0 R92
M73 Q0 S93
M201 X1000 Y1000 Z200 E5000 ; sets maximum accelerations, mm/sec^2
M203 X200 Y200 Z12 E120 ; sets maximum feedrates, mm/sec
M204 P1250 R1250 T1250 ; sets acceleration (P, T) and retract acceleration (R), mm/sec^2
M205 X8.00 Y8.00 Z0.40 E4.50 ; sets the jerk limits, mm/sec
M205 S0 T0 ; sets the minimum extruding and travel feed rate, mm/sec
M107
;TYPE:Custom
M862.3 P "MK3" ; printer model check
M862.1 P0.4 ; nozzle diameter check
M115 U3.9.3 ; tell printer latest fw version
G90 ; use absolute coordinates
M83 ; extruder relative mode
M104 S215 ; set extruder temp
M140 S60 ; set bed temp
M190 S60 ; wait for bed temp
M109 S215 ; wait for extruder temp
G28 W ; home all without mesh bed level
G80 ; mesh bed leveling
G1 Y-3.0 F1000.0 ; go outside print area
G92 E0.0
G1 X60.0 E9.0 F1000.0 ; intro line
G1 X100.0 E12.5 F1000.0 ; intro line
G92 E0.0
M221 S95

; Don't change E values below. Excessive value can damage the printer.
M907 E430 ; set extruder motor current
G21 ; set units to millimeters
G90 ; use absolute coordinates
M83 ; use relative distances for extrusion
M900 K0.05 ; Filament gcode LA 1.5
M900 K30 ; Filament gcode LA 1.0
;LAYER_CHANGE
;Z:0.2
;HEIGHT:0.2
;BEFORE_LAYER_CHANGE
G92 E0.0
;0.2


G1 E-0.80000 F2100.000
G1 Z0.400 F10800.000
;AFTER_LAYER_CHANGE
;0.2
G1 X103.609 Y173.569
G1 Z0.200
G1 E0.80000 F2100.000
M204 S1000
;TYPE:Skirt
;WIDTH:0.42
G1 F1200.000
G1 X79.546 Y160.777 E0.85444
G1 X79.131 Y160.476 E0.01609
G1 X78.790 Y160.092 E0.01609
G1 X78.539 Y159.644 E0.01609
G1 X78.390 Y159.153 E0.01609
G1 X78.349 Y43.709 E3.61966
G1 X78.428 Y42.636 E0.03376
G1 X78.660 Y41.595 E0.03343
G1 X79.055 Y40.564 E0.03463
G1 X79.590 Y39.618 E0.03408
G1 X80.259 Y38.760 E0.03411
G1 X81.048 Y38.009 E0.03415
G1 X81.936 Y37.384 E0.03403
G1 X82.909 Y36.895 E0.03415
G1 X83.940 Y36.556 E0.03403
G1 X85.044 Y36.368 E0.03511
G1 X143.730 Y36.336 E1.84007
G1 X144.740 Y36.456 E0.03190
G1 X145.614 Y36.764 E0.02904
G1 X170.370 Y49.177 E0.86833
G1 X170.809 Y49.472 E0.01657
G1 X171.169 Y49.853 E0.01645
G1 X171.439 Y50.307 E0.01657
G1 X171.602 Y50.809 E0.01657
G1 X171.651 Y171.287 E3.77749
G1 X171.556 Y171.952 E0.02107
G1 X171.237 Y172.628 E0.02343
G1 X170.723 Y173.171 E0.02343
G1 X170.067 Y173.528 E0.02343
G1 X169.328 Y173.663 E0.02355
G1 X104.270 Y173.664 E2.03985
G1 X103.668 Y173.577 E0.01907
; printing object breakoutboard-Holder_Botton.stl id:1 copy 0
;WIPE_START
G1 F8640.000
G1 X100.761 Y172.035 E-0.76000
;WIPE_END
G1 E-0.04000 F2100.000
G1 Z0.600 F10800.000
G1 X105.061 Y170.500
G1 Z0.200
G1 E0.80000 F2100.000
;TYPE:Perimeter
G1 F1200.000
G1 X105.061 Y152.074 E0.57773
G1 X107.287 Y152.074 E0.06979
G1 X107.287 Y169.074 E0.53302
G1 X121.261 Y169.074 E0.43815
G1 X121.261 Y152.074 E0.53302
G1 X158.061 Y152.074 E1.15384
G1 X158.061 Y52.074 E3.13543
G1 X168.487 Y52.074 E0.32689
G1 X168.487 Y170.500 E3.71316
M73 Q0 S92
G1 X105.121 Y170.500 E1.98679
;WIPE_START
G1 F8640.000
G1 X105.110 Y167.208 E-0.76000
;WIPE_END
G1 E-0.04000 F2100.000
G1 Z0.600 F10800.000
G1 X107.664 Y168.697
G1 Z0.200
G1 E0.80000 F2100.000
;TYPE:External perimeter
G1 F1200.000
G1 X120.884 Y168.697 E0.41450
G1 X120.884 Y151.697 E0.53302
G1 X157.684 Y151.697 E1.15384
G1 X157.684 Y51.697 E3.13543
M73 P1 R92
M73 Q1 S92
G1 X168.864 Y51.697 E0.35054
M73 P1 R91
G1 X168.864 Y170.877 E3.73681
G1 X104.684 Y170.877 E2.01232
G1 X104.684 Y151.697 E0.60138
G1 X107.664 Y151.697 E0.09344
G1 X107.664 Y168.637 E0.53114
G1 X107.687 Y169.096 F10800.000
;WIPE_START
G1 F8640.000
G1 X110.955 Y168.652 E-0.76000
;WIPE_END
G1 E-0.04000 F2100.000
G1 Z0.600 F10800.000
G1 X168.374 Y52.950
G1 Z0.200
G1 E0.80000 F2100.000
;TYPE:Solid infill
;WIDTH:0.420337
G1 F1200.000
G1 X167.780 Y52.357 E0.02633
G1 X167.247 Y52.357 E0.01675
G1 X168.204 Y53.314 E0.04249
G1 X168.204 Y53.848 E0.01675
G1 X166.713 Y52.357 E0.06618
G1 X166.179 Y52.357 E0.01675
G1 X168.204 Y54.382 E0.08987
G1 X168.204 Y54.915 E0.01675
G1 X165.645 Y52.357 E0.11355
G1 X165.112 Y52.357 E0.01675
G1 X168.204 Y55.449 E0.13724
G1 X168.204 Y55.983 E0.01675
G1 X164.578 Y52.357 E0.16093
G1 X164.044 Y52.357 E0.01675
G1 X168.204 Y56.517 E0.18462
G1 X168.204 Y57.050 E0.01675
G1 X163.510 Y52.357 E0.20831
G1 X162.977 Y52.357 E0.01675
G1 X168.204 Y57.584 E0.23200
G1 X168.204 Y58.118 E0.01675
G1 X162.443 Y52.357 E0.25569
G1 X161.909 Y52.357 E0.01675
G1 X168.204 Y58.652 E0.27937
G1 X168.204 Y59.185 E0.01675
G1 X161.375 Y52.357 E0.30306
G1 X160.842 Y52.357 E0.01675
G1 X168.204 Y59.719 E0.32675
G1 X168.204 Y60.253 E0.01675
G1 X160.308 Y52.357 E0.35044
G1 X159.774 Y52.357 E0.01675
G1 X168.204 Y60.786 E0.37413
G1 X168.204 Y61.320 E0.01675
G1 X159.240 Y52.357 E0.39782
G1 X158.707 Y52.357 E0.01675
G1 X168.204 Y61.854 E0.42150
G1 X168.204 Y62.388 E0.01675
G1 X158.344 Y52.527 E0.43761
G1 X158.344 Y53.061 E0.01675
G1 X168.204 Y62.921 E0.43761
G1 X168.204 Y63.455 E0.01675
G1 X158.344 Y53.595 E0.43761
G1 X158.344 Y54.129 E0.01675
G1 X168.204 Y63.989 E0.43761
G1 X168.204 Y64.523 E0.01675
G1 X158.344 Y54.662 E0.43761
G1 X158.344 Y55.196 E0.01675
G1 X168.204 Y65.056 E0.43761
G1 X168.204 Y65.590 E0.01675
G1 X158.344 Y55.730 E0.43761
G1 X158.344 Y56.264 E0.01675
G1 X168.204 Y66.124 E0.43761
G1 X168.204 Y66.658 E0.01675
G1 X158.344 Y56.797 E0.43761
G1 X158.344 Y57.331 E0.01675
G1 X168.204 Y67.191 E0.43761
G1 X168.204 Y67.725 E0.01675
G1 X158.344 Y57.865 E0.43761
G1 X158.344 Y58.399 E0.01675
G1 X168.204 Y68.259 E0.43761
G1 X168.204 Y68.793 E0.01675
G1 X158.344 Y58.932 E0.43761
G1 X158.344 Y59.466 E0.01675
G1 X168.204 Y69.326 E0.43761
G1 X168.204 Y69.860 E0.01675
G1 X158.344 Y60.000 E0.43761
G1 X158.344 Y60.534 E0.01675
G1 X168.204 Y70.394 E0.43761
G1 X168.204 Y70.928 E0.01675
G1 X158.344 Y61.067 E0.43761
G1 X158.344 Y61.601 E0.01675
G1 X168.204 Y71.461 E0.43761
G1 X168.204 Y71.995 E0.01675
G1 X158.344 Y62.135 E0.43761
G1 X158.344 Y62.669 E0.01675
G1 X168.204 Y72.529 E0.43761
G1 X168.204 Y73.063 E0.01675
G1 X158.344 Y63.202 E0.43761
G1 X158.344 Y63.736 E0.01675
G1 X168.204 Y73.596 E0.43761
G1 X168.204 Y74.130 E0.01675
G1 X158.344 Y64.270 E0.43761
G1 X158.344 Y64.804 E0.01675
G1 X168.204 Y74.664 E0.43761
G1 X168.204 Y75.198 E0.01675
G1 X158.344 Y65.337 E0.43761
G1 X158.344 Y65.871 E0.01675
G1 X168.204 Y75.731 E0.43761
G1 X168.204 Y76.265 E0.01675
G1 X158.344 Y66.405 E0.43761
G1 X158.344 Y66.939 E0.01675
G1 X168.204 Y76.799 E0.43761
G1 X168.204 Y77.333 E0.01675
G1 X158.344 Y67.472 E0.43761
G1 X158.344 Y68.006 E0.01675
G1 X168.204 Y77.866 E0.43761
G1 X168.204 Y78.400 E0.01675
G1 X158.344 Y68.540 E0.43761
G1 X158.344 Y69.074 E0.01675
G1 X168.204 Y78.934 E0.43761
G1 X168.204 Y79.468 E0.01675
G1 X158.344 Y69.607 E0.43761
M73 Q1 S91
G1 X158.344 Y70.141 E0.01675
G1 X168.204 Y80.001 E0.43761
G1 X168.204 Y80.535 E0.01675
G1 X158.344 Y70.675 E0.43761
G1 X158.344 Y71.209 E0.01675
G1 X168.204 Y81.069 E0.43761
G1 X168.204 Y81.603 E0.01675
G1 X158.344 Y71.742 E0.43761
G1 X158.344 Y72.276 E0.01675
G1 X168.204 Y82.136 E0.43761
G1 X168.204 Y82.670 E0.01675
G1 X158.344 Y72.810 E0.43761
G1 X158.344 Y73.344 E0.01675
G1 X168.204 Y83.204 E0.43761
G1 X168.204 Y83.738 E0.01675
G1 X158.344 Y73.877 E0.43761
G1 X158.344 Y74.411 E0.01675
G1 X168.204 Y84.271 E0.43761
G1 X168.204 Y84.805 E0.01675
G1 X158.344 Y74.945 E0.43761
G1 X158.344 Y75.479 E0.01675
G1 X168.204 Y85.339 E0.43761
G1 X168.204 Y85.873 E0.01675
M73 Q2 S91
G1 X158.344 Y76.012 E0.43761
M73 P2 R91
G1 X158.344 Y76.546 E0.01675
G1 X168.204 Y86.406 E0.43761
G1 X168.204 Y86.940 E0.01675
G1 X158.344 Y77.080 E0.43761
G1 X158.344 Y77.614 E0.01675
G1 X168.204 Y87.474 E0.43761
G1 X168.204 Y88.008 E0.01675
G1 X158.344 Y78.147 E0.43761
G1 X158.344 Y78.681 E0.01675
G1 X168.204 Y88.541 E0.43761
G1 X168.204 Y89.075 E0.01675
G1 X158.344 Y79.215 E0.43761
G1 X158.344 Y79.749 E0.01675
G1 X168.204 Y89.609 E0.43761
G1 X168.204 Y90.143 E0.01675
G1 X158.344 Y80.282 E0.43761
G1 X158.344 Y80.816 E0.01675
G1 X168.204 Y90.676 E0.43761
G1 X168.204 Y91.210 E0.01675
G1 X158.344 Y81.350 E0.43761
G1 X158.344 Y81.884 E0.01675
G1 X168.204 Y91.744 E0.43761
M73 P2 R90
G1 X168.204 Y92.278 E0.01675
G1 X158.344 Y82.417 E0.43761
G1 X158.344 Y82.951 E0.01675
G1 X168.204 Y92.811 E0.43761
G1 X168.204 Y93.345 E0.01675
G1 X158.344 Y83.485 E0.43761
G1 X158.344 Y84.019 E0.01675
G1 X168.204 Y93.879 E0.43761
G1 X168.204 Y94.413 E0.01675
G1 X158.344 Y84.552 E0.43761
G1 X158.344 Y85.086 E0.01675
G1 X168.204 Y94.946 E0.43761
G1 X168.204 Y95.480 E0.01675
G1 X158.344 Y85.620 E0.43761
G1 X158.344 Y86.154 E0.01675
G1 X168.204 Y96.014 E0.43761
G1 X168.204 Y96.548 E0.01675
G1 X158.344 Y86.687 E0.43761
G1 X158.344 Y87.221 E0.01675
G1 X168.204 Y97.081 E0.43761
G1 X168.204 Y97.615 E0.01675
G1 X158.344 Y87.755 E0.43761
G1 X158.344 Y88.289 E0.01675
G1 X168.204 Y98.149 E0.43761
G1 X168.204 Y98.683 E0.01675
G1 X158.344 Y88.822 E0.43761
G1 X158.344 Y89.356 E0.01675
G1 X168.204 Y99.216 E0.43761
G1 X168.204 Y99.750 E0.01675
G1 X158.344 Y89.890 E0.43761
G1 X158.344 Y90.424 E0.01675
G1 X168.204 Y100.284 E0.43761
G1 X168.204 Y100.818 E0.01675
G1 X158.344 Y90.957 E0.43761
G1 X158.344 Y91.491 E0.01675
G1 X168.204 Y101.351 E0.43761
G1 X168.204 Y101.885 E0.01675
G1 X158.344 Y92.025 E0.43761
G1 X158.344 Y92.559 E0.01675
G1 X168.204 Y102.419 E0.43761
G1 X168.204 Y102.953 E0.01675
G1 X158.344 Y93.092 E0.43761
G1 X158.344 Y93.626 E0.01675
G1 X168.204 Y103.486 E0.43761
G1 X168.204 Y104.020 E0.01675
G1 X158.344 Y94.160 E0.43761
G1 X158.344 Y94.694 E0.01675
G1 X168.204 Y104.554 E0.43761
G1 X168.204 Y105.088 E0.01675
G1 X158.344 Y95.227 E0.43761
G1 X158.344 Y95.761 E0.01675
G1 X168.204 Y105.621 E0.43761
G1 X168.204 Y106.155 E0.01675
G1 X158.344 Y96.295 E0.43761
G1 X158.344 Y96.829 E0.01675
G1 X168.204 Y106.689 E0.43761
G1 X168.204 Y107.223 E0.01675
G1 X158.344 Y97.362 E0.43761
G1 X158.344 Y97.896 E0.01675
G1 X168.204 Y107.756 E0.43761
G1 X168.204 Y108.290 E0.01675
G1 X158.344 Y98.430 E0.43761
G1 X158.344 Y98.964 E0.01675
G1 X168.204 Y108.824 E0.43761
G1 X168.204 Y109.358 E0.01675
G1 X158.344 Y99.497 E0.43761
G1 X158.344 Y100.031 E0.01675
G1 X168.204 Y109.891 E0.43761
G1 X168.204 Y110.425 E0.01675
G1 X158.344 Y100.565 E0.43761
G1 X158.344 Y101.099 E0.01675
G1 X168.204 Y110.959 E0.43761
G1 X168.204 Y111.493 E0.01675
G1 X158.344 Y101.632 E0.43761
G1 X158.344 Y102.166 E0.01675
G1 X168.204 Y112.026 E0.43761
G1 X168.204 Y112.560 E0.01675
G1 X158.344 Y102.700 E0.43761
G1 X158.344 Y103.234 E0.01675
G1 X168.204 Y113.094 E0.43761
G1 X168.204 Y113.628 E0.01675
G1 X158.344 Y103.767 E0.43761
G1 X158.344 Y104.301 E0.01675
G1 X168.204 Y114.161 E0.43761
G1 X168.204 Y114.695 E0.01675
G1 X158.344 Y104.835 E0.43761
G1 X158.344 Y105.369 E0.01675
G1 X168.204 Y115.229 E0.43761
G1 X168.204 Y115.763 E0.01675
G1 X158.344 Y105.902 E0.43761
G1 X158.344 Y106.436 E0.01675
G1 X168.204 Y116.296 E0.43761
G1 X168.204 Y116.830 E0.01675
G1 X158.344 Y106.970 E0.43761
G1 X158.344 Y107.504 E0.01675
G1 X168.204 Y117.364 E0.43761
G1 X168.204 Y117.898 E0.01675
G1 X158.344 Y108.037 E0.43761
G1 X158.344 Y108.571 E0.01675
G1 X168.204 Y118.431 E0.43761
G1 X168.204 Y118.965 E0.01675
G1 X158.344 Y109.105 E0.43761
G1 X158.344 Y109.639 E0.01675
G1 X168.204 Y119.499 E0.43761
G1 X168.204 Y120.033 E0.01675
G1 X158.344 Y110.172 E0.43761
G1 X158.344 Y110.706 E0.01675
G1 X168.204 Y120.566 E0.43761
G1 X168.204 Y121.100 E0.01675
G1 X158.344 Y111.240 E0.43761
G1 X158.344 Y111.774 E0.01675
G1 X168.204 Y121.634 E0.43761
G1 X168.204 Y122.168 E0.01675
G1 X158.344 Y112.307 E0.43761
G1 X158.344 Y112.841 E0.01675
G1 X168.204 Y122.701 E0.43761
G1 X168.204 Y123.235 E0.01675
G1 X158.344 Y113.375 E0.43761
M73 Q2 S90
G1 X158.344 Y113.909 E0.01675
G1 X168.204 Y123.769 E0.43761
G1 X168.204 Y124.303 E0.01675
G1 X158.344 Y114.442 E0.43761
G1 X158.344 Y114.976 E0.01675
G1 X168.204 Y124.836 E0.43761
G1 X168.204 Y125.370 E0.01675
G1 X158.344 Y115.510 E0.43761
G1 X158.344 Y116.044 E0.01675
G1 X168.204 Y125.904 E0.43761
M73 P3 R90
G1 X168.204 Y126.438 E0.01675
G1 X158.344 Y116.577 E0.43761
M73 Q3 S90
G1 X158.344 Y117.111 E0.01675
G1 X168.204 Y126.971 E0.43761
G1 X168.204 Y127.505 E0.01675
G1 X158.344 Y117.645 E0.43761
G1 X158.344 Y118.179 E0.01675
G1 X168.204 Y128.039 E0.43761
G1 X168.204 Y128.573 E0.01675
G1 X158.344 Y118.712 E0.43761
G1 X158.344 Y119.246 E0.01675
G1 X168.204 Y129.106 E0.43761
G1 X168.204 Y129.640 E0.01675
G1 X158.344 Y119.780 E0.43761
G1 X158.344 Y120.314 E0.01675
G1 X168.204 Y130.174 E0.43761
G1 X168.204 Y130.708 E0.01675
G1 X158.344 Y120.847 E0.43761
G1 X158.344 Y121.381 E0.01675
G1 X168.204 Y131.241 E0.43761
G1 X168.204 Y131.775 E0.01675
G1 X158.344 Y121.915 E0.43761
G1 X158.344 Y122.449 E0.01675
G1 X168.204 Y132.309 E0.43761
G1 X168.204 Y132.843 E0.01675
G1 X158.344 Y122.982 E0.43761
G1 X158.344 Y123.516 E0.01675
G1 X168.204 Y133.376 E0.43761
G1 X168.204 Y133.910 E0.01675
G1 X158.344 Y124.050 E0.43761
G1 X158.344 Y124.584 E0.01675
G1 X168.204 Y134.444 E0.43761
G1 X168.204 Y134.978 E0.01675
G1 X158.344 Y125.117 E0.43761
M73 P3 R89
G1 X158.344 Y125.651 E0.01675
G1 X168.204 Y135.511 E0.43761
G1 X168.204 Y136.045 E0.01675
G1 X158.344 Y126.185 E0.43761
G1 X158.344 Y126.718 E0.01675
G1 X168.204 Y136.579 E0.43761
G1 X168.204 Y137.112 E0.01675
G1 X158.344 Y127.252 E0.43761
G1 X158.344 Y127.786 E0.01675
G1 X168.204 Y137.646 E0.43761
G1 X168.204 Y138.180 E0.01675
G1 X158.344 Y128.320 E0.43761
G1 X158.344 Y128.853 E0.01675
G1 X168.204 Y138.714 E0.43761
G1 X168.204 Y139.247 E0.01675
G1 X158.344 Y129.387 E0.43761
G1 X158.344 Y129.921 E0.01675
G1 X168.204 Y139.781 E0.43761
G1 X168.204 Y140.315 E0.01675
G1 X158.344 Y130.455 E0.43761
G1 X158.344 Y130.988 E0.01675
G1 X168.204 Y140.849 E0.43761
G1 X168.204 Y141.382 E0.01675
G1 X158.344 Y131.522 E0.43761
G1 X158.344 Y132.056 E0.01675
G1 X168.204 Y141.916 E0.43761
G1 X168.204 Y142.450 E0.01675
G1 X158.344 Y132.590 E0.43761
G1 X158.344 Y133.123 E0.01675
G1 X168.204 Y142.984 E0.43761
G1 X168.204 Y143.517 E0.01675
G1 X158.344 Y133.657 E0.43761
G1 X158.344 Y134.191 E0.01675
G1 X168.204 Y144.051 E0.43761
G1 X168.204 Y144.585 E0.01675
G1 X158.344 Y134.725 E0.43761
G1 X158.344 Y135.258 E0.01675
G1 X168.204 Y145.119 E0.43761
G1 X168.204 Y145.652 E0.01675
G1 X158.344 Y135.792 E0.43761
G1 X158.344 Y136.326 E0.01675
G1 X168.204 Y146.186 E0.43761
G1 X168.204 Y146.720 E0.01675
G1 X158.344 Y136.860 E0.43761
G1 X158.344 Y137.393 E0.01675
G1 X168.204 Y147.254 E0.43761
G1 X168.204 Y147.787 E0.01675
G1 X158.344 Y137.927 E0.43761
G1 X158.344 Y138.461 E0.01675
G1 X168.204 Y148.321 E0.43761
G1 X168.204 Y148.855 E0.01675
G1 X158.344 Y138.995 E0.43761
G1 X158.344 Y139.528 E0.01675
G1 X168.204 Y149.389 E0.43761
G1 X168.204 Y149.922 E0.01675
G1 X158.344 Y140.062 E0.43761
G1 X158.344 Y140.596 E0.01675
G1 X168.204 Y150.456 E0.43761
G1 X168.204 Y150.990 E0.01675
G1 X158.344 Y141.130 E0.43761
G1 X158.344 Y141.663 E0.01675
G1 X168.204 Y151.524 E0.43761
G1 X168.204 Y152.057 E0.01675
G1 X158.344 Y142.197 E0.43761
G1 X158.344 Y142.731 E0.01675
G1 X168.204 Y152.591 E0.43761
G1 X168.204 Y153.125 E0.01675
G1 X158.344 Y143.265 E0.43761
G1 X158.344 Y143.798 E0.01675
G1 X168.204 Y153.659 E0.43761
G1 X168.204 Y154.192 E0.01675
G1 X158.344 Y144.332 E0.43761
G1 X158.344 Y144.866 E0.01675
G1 X168.204 Y154.726 E0.43761
G1 X168.204 Y155.260 E0.01675
G1 X158.344 Y145.400 E0.43761
G1 X158.344 Y145.933 E0.01675
G1 X168.204 Y155.794 E0.43761
G1 X168.204 Y156.327 E0.01675
G1 X158.344 Y146.467 E0.43761
G1 X158.344 Y147.001 E0.01675
G1 X168.204 Y156.861 E0.43761
G1 X168.204 Y157.395 E0.01675
G1 X158.344 Y147.535 E0.43761
G1 X158.344 Y148.068 E0.01675
G1 X168.204 Y157.929 E0.43761
G1 X168.204 Y158.462 E0.01675
G1 X158.344 Y148.602 E0.43761
G1 X158.344 Y149.136 E0.01675
G1 X168.204 Y158.996 E0.43761
G1 X168.204 Y159.530 E0.01675
G1 X158.344 Y149.670 E0.43761
G1 X158.344 Y150.203 E0.01675
G1 X168.204 Y160.064 E0.43761
G1 X168.204 Y160.597 E0.01675
