; generated by PrusaSlicer 2.3.1+win64 on 2022-03-08 at 07:11:46 UTC

; 

; external perimeters extrusion width = 0.45mm
; perimeters extrusion width = 0.45mm
; infill extrusion width = 0.45mm
; solid infill extrusion width = 0.45mm
; top infill extrusion width = 0.40mm
; first layer extrusion width = 0.42mm

M73 P0 R151
M73 Q0 S153
M201 X1000 Y1000 Z200 E5000 ; sets maximum accelerations, mm/sec^2
M203 X200 Y200 Z12 E120 ; sets maximum feedrates, mm/sec
M204 P1250 R1250 T1250 ; sets acceleration (P, T) and retract acceleration (R), mm/sec^2
M205 X8.00 Y8.00 Z0.40 E4.50 ; sets the jerk limits, mm/sec
M205 S0 T0 ; sets the minimum extruding and travel feed rate, mm/sec
M107
;TYPE:Custom
M862.3 P "MK3" ; printer model check
M862.1 P0.4 ; nozzle diameter check
M115 U3.9.3 ; tell printer latest fw version
G90 ; use absolute coordinates
M83 ; extruder relative mode
M104 S215 ; set extruder temp
M140 S60 ; set bed temp
M190 S60 ; wait for bed temp
M109 S215 ; wait for extruder temp
G28 W ; home all without mesh bed level
G80 ; mesh bed leveling
G1 Y-3.0 F1000.0 ; go outside print area
G92 E0.0
G1 X60.0 E9.0 F1000.0 ; intro line
G1 X100.0 E12.5 F1000.0 ; intro line
G92 E0.0
M221 S95

; Don't change E values below. Excessive value can damage the printer.
M907 E430 ; set extruder motor current
G21 ; set units to millimeters
G90 ; use absolute coordinates
M83 ; use relative distances for extrusion
M900 K0.05 ; Filament gcode LA 1.5
M900 K30 ; Filament gcode LA 1.0
;LAYER_CHANGE
;Z:0.2
;HEIGHT:0.2
;BEFORE_LAYER_CHANGE
G92 E0.0
;0.2


G1 E-0.80000 F2100.000
G1 Z0.400 F10800.000
;AFTER_LAYER_CHANGE
;0.2
G1 X10.888 Y98.552
G1 Z0.200
G1 E0.80000 F2100.000
M204 S1000
;TYPE:Skirt
;WIDTH:0.42
G1 F1200.000
G1 X11.696 Y97.806 E0.03449
G1 X12.633 Y97.333 E0.03291
G1 X13.722 Y97.127 E0.03475
G1 X236.114 Y97.123 E6.97294
M73 Q0 S152
G1 X236.863 Y97.197 E0.02361
G1 X237.588 Y97.416 E0.02374
G1 X238.254 Y97.772 E0.02367
G1 X238.838 Y98.249 E0.02365
G1 X239.320 Y98.834 E0.02378
G1 X239.678 Y99.498 E0.02364
G1 X239.900 Y100.223 E0.02377
G1 X239.977 Y100.958 E0.02318
G1 X239.973 Y106.191 E0.16407
G1 X239.891 Y106.819 E0.01987
G1 X239.682 Y107.492 E0.02209
G1 X239.110 Y108.451 E0.03502
G1 X238.301 Y109.196 E0.03449
G1 X237.367 Y109.667 E0.03279
G1 X236.279 Y109.873 E0.03473
G1 X156.161 Y112.877 E2.51381
M73 P0 R150
G1 X93.852 Y112.877 E1.95365
G1 X13.554 Y109.862 E2.51946
G1 X12.907 Y109.750 E0.02058
G1 X12.234 Y109.505 E0.02246
G1 X11.619 Y109.139 E0.02245
G1 X11.119 Y108.707 E0.02070
G1 X10.672 Y108.154 E0.02232
G1 X10.331 Y107.523 E0.02248
G1 X10.127 Y106.899 E0.02058
G1 X10.027 Y106.179 E0.02280
G1 X10.027 Y100.817 E0.16813
G1 X10.107 Y100.188 E0.01987
G1 X10.312 Y99.523 E0.02184
G1 X10.857 Y98.604 E0.03349
;WIPE_START
G1 F8640.000
G1 X11.696 Y97.806 E-0.26733
G1 X12.633 Y97.333 E-0.24235
G1 X13.698 Y97.131 E-0.25032
;WIPE_END
G1 E-0.04000 F2100.000
G1 Z0.600 F10800.000
G1 X71.138 Y112.213
G1 Z0.200
G1 E0.80000 F2100.000
G1 F1200.000
G1 X13.638 Y112.206 E1.80287
G1 X12.538 Y112.064 E0.03479
G1 X11.443 Y111.710 E0.03607
G1 X10.441 Y111.166 E0.03573
G1 X9.580 Y110.471 E0.03470
G1 X8.852 Y109.629 E0.03490
G1 X8.286 Y108.670 E0.03492
G1 X7.891 Y107.589 E0.03609
G1 X7.706 Y106.477 E0.03533
G1 X7.692 Y100.761 E0.17924
G1 X7.746 Y100.138 E0.01961
G1 X7.863 Y99.517 E0.01982
G1 X8.224 Y98.467 E0.03479
G1 X8.815 Y97.421 E0.03769
G1 X9.444 Y96.664 E0.03085
G1 X10.176 Y96.021 E0.03054
G1 X10.922 Y95.543 E0.02778
G1 X11.748 Y95.168 E0.02845
G1 X12.598 Y94.923 E0.02773
G1 X13.480 Y94.801 E0.02792
G1 X99.192 Y94.800 E2.68744
G1 X99.997 Y94.914 E0.02549
G1 X100.769 Y95.136 E0.02518
G1 X101.749 Y95.607 E0.03411
G1 X102.500 Y96.147 E0.02899
G1 X103.193 Y96.847 E0.03088
G1 X103.255 Y96.937 E0.00342
G1 X103.518 Y97.314 F10800.000
G1 F1200.000
G1 X103.748 Y97.645 E0.01266
G1 X104.149 Y98.495 E0.02946
G1 X104.405 Y99.396 E0.02936
G1 X104.511 Y100.341 E0.02982
G1 X104.514 Y102.011 E0.05236
G1 X104.433 Y102.400 E0.01246
G1 X104.523 Y102.787 E0.01245
G1 X146.477 Y102.787 E1.31543
G1 X146.567 Y102.400 E0.01245
G1 X146.486 Y102.010 E0.01248
G1 X146.490 Y100.327 E0.05276
G1 X146.590 Y99.419 E0.02864
G1 X146.822 Y98.573 E0.02750
G1 X147.194 Y97.747 E0.02841
G1 X147.485 Y97.313 E0.01639
G1 X147.737 Y96.936 F10800.000
G1 F1200.000
G1 X148.412 Y96.224 E0.03076
G1 X149.120 Y95.688 E0.02783
G1 X149.896 Y95.272 E0.02761
G1 X150.748 Y94.974 E0.02828
G1 X151.797 Y94.801 E0.03336
G1 X236.491 Y94.802 E2.65553
G1 X237.437 Y94.930 E0.02991
G1 X238.319 Y95.191 E0.02886
G1 X239.716 Y95.941 E0.04970
G1 X240.443 Y96.551 E0.02977
G1 X241.088 Y97.286 E0.03066
G1 X241.775 Y98.466 E0.04281
G1 X242.150 Y99.576 E0.03674
G1 X242.311 Y100.763 E0.03754
G1 X242.312 Y106.132 E0.16835
G1 X242.268 Y106.759 E0.01972
G1 X242.118 Y107.552 E0.02530
G1 X241.760 Y108.573 E0.03390
G1 X241.426 Y109.206 E0.02246
G1 X241.014 Y109.809 E0.02290
G1 X240.327 Y110.559 E0.03188
G1 X239.512 Y111.197 E0.03248
G1 X238.626 Y111.681 E0.03164
G1 X237.933 Y111.939 E0.02320
G1 X237.234 Y112.111 E0.02255
G1 X236.333 Y112.207 E0.02842
G1 X178.894 Y112.213 E1.80097
;WIPE_START
G1 F8640.000
G1 X182.185 Y112.213 E-0.76000
;WIPE_END
G1 E-0.04000 F2100.000
G1 Z0.600 F10800.000
G1 X168.800 Y112.214
G1 Z0.200
G1 E0.80000 F2100.000
G1 F1200.000
G1 X161.404 Y112.215 E0.23190
G1 X161.238 Y112.498 E0.01028
G1 X160.928 Y112.887 F10800.000
G1 F1200.000
G1 X160.642 Y113.246 E0.01439
G1 X159.681 Y114.081 E0.03994
G1 X158.512 Y114.730 E0.04193
G1 X157.442 Y115.069 E0.03518
G1 X156.338 Y115.211 E0.03489
G1 X93.663 Y115.211 E1.96515
G1 X92.560 Y115.069 E0.03485
G1 X91.495 Y114.733 E0.03503
G1 X90.366 Y114.115 E0.04034
G1 X89.341 Y113.228 E0.04251
G1 X89.071 Y112.886 E0.01366
G1 X88.764 Y112.497 F10800.000
G1 F1200.000
G1 X88.595 Y112.215 E0.01032
G1 X81.222 Y112.214 E0.23117
;WIPE_START
G1 F8640.000
G1 X84.513 Y112.214 E-0.76000
;WIPE_END
G1 E-0.04000 F2100.000
G1 Z0.600 F10800.000
G1 X89.259 Y112.516
G1 Z0.200
G1 E0.80000 F2100.000
G1 F1200.000
G1 X89.037 Y112.235 E0.01122
G1 X88.820 Y111.838 E0.01420
G1 X71.154 Y111.836 E0.55390
;WIPE_START
G1 F8640.000
G1 X74.446 Y111.836 E-0.76000
;WIPE_END
G1 E-0.04000 F2100.000
G1 Z0.600 F10800.000
G1 X61.076 Y111.835
G1 Z0.200
G1 E0.80000 F2100.000
G1 F1200.000
G1 X13.673 Y111.830 E1.48627
G1 X12.636 Y111.699 E0.03279
G1 X11.606 Y111.370 E0.03389
G1 X10.664 Y110.861 E0.03358
G1 X9.854 Y110.212 E0.03255
G1 X9.149 Y109.396 E0.03380
G1 X8.621 Y108.495 E0.03276
G1 X8.252 Y107.477 E0.03393
G1 X8.080 Y106.432 E0.03323
G1 X8.069 Y100.785 E0.17705
G1 X8.120 Y100.180 E0.01904
G1 X8.231 Y99.600 E0.01849
G1 X8.561 Y98.637 E0.03194
G1 X9.117 Y97.648 E0.03557
G1 X9.705 Y96.937 E0.02893
G1 X10.392 Y96.330 E0.02874
G1 X11.091 Y95.880 E0.02606
G1 X11.866 Y95.527 E0.02672
G1 X12.689 Y95.289 E0.02685
G1 X13.518 Y95.176 E0.02622
G1 X99.153 Y95.176 E2.68504
G1 X99.906 Y95.280 E0.02381
G1 X100.649 Y95.494 E0.02426
G1 X101.544 Y95.923 E0.03111
G1 X102.243 Y96.424 E0.02698
G1 X102.751 Y96.937 E0.02262
G1 X103.061 Y97.314 F10800.000
G1 F1200.000
G1 X103.429 Y97.847 E0.02032
G1 X103.791 Y98.614 E0.02659
G1 X104.033 Y99.454 E0.02741
G1 X104.134 Y100.352 E0.02834
G1 X104.136 Y101.990 E0.05134
G1 X104.046 Y102.401 E0.01322
G1 X104.132 Y102.770 E0.01186
G1 X104.140 Y103.164 E0.01236
G1 X146.860 Y103.164 E1.33943
M73 Q0 S151
G1 X146.868 Y102.770 E0.01236
G1 X146.954 Y102.401 E0.01186
G1 X146.863 Y101.989 E0.01323
G1 X146.867 Y100.338 E0.05177
G1 X146.958 Y99.504 E0.02629
G1 X147.181 Y98.688 E0.02655
G1 X147.531 Y97.918 E0.02651
G1 X147.938 Y97.313 E0.02287
G1 X148.250 Y96.936 F10800.000
G1 F1200.000
G1 X148.651 Y96.515 E0.01823
G1 X149.335 Y95.998 E0.02688
G1 X150.061 Y95.612 E0.02577
G1 X150.826 Y95.344 E0.02543
G1 X151.813 Y95.178 E0.03138
G1 X236.454 Y95.177 E2.65386
G1 X237.344 Y95.296 E0.02814
G1 X238.194 Y95.548 E0.02779
G1 X239.489 Y96.242 E0.04606
G1 X240.189 Y96.830 E0.02870
G1 X240.792 Y97.520 E0.02871
G1 X241.439 Y98.638 E0.04050
G1 X241.786 Y99.678 E0.03439
G1 X241.934 Y100.775 E0.03470
G1 X241.935 Y106.125 E0.16774
G1 X241.892 Y106.722 E0.01876
G1 X241.757 Y107.442 E0.02297
G1 X241.420 Y108.409 E0.03213
G1 X241.098 Y109.021 E0.02166
G1 X240.711 Y109.585 E0.02146
G1 X240.082 Y110.272 E0.02921
G1 X239.316 Y110.874 E0.03054
G1 X238.481 Y111.333 E0.02988
G1 X237.832 Y111.576 E0.02173
G1 X237.157 Y111.742 E0.02179
G1 X236.304 Y111.831 E0.02690
G1 X188.971 Y111.835 E1.48409
;WIPE_START
G1 F8640.000
G1 X192.262 Y111.835 E-0.76000
;WIPE_END
G1 E-0.04000 F2100.000
G1 Z0.600 F10800.000
G1 X178.880 Y111.836
G1 Z0.200
G1 E0.80000 F2100.000
G1 F1200.000
G1 X161.179 Y111.838 E0.55502
G1 X160.951 Y112.252 E0.01481
G1 X160.741 Y112.516 E0.01059
G1 X160.431 Y112.905 F10800.000
G1 F1200.000
G1 X160.358 Y112.997 E0.00370
G1 X159.480 Y113.762 E0.03651
G1 X158.378 Y114.377 E0.03955
G1 X157.376 Y114.697 E0.03300
G1 X156.326 Y114.834 E0.03320
G1 X93.675 Y114.834 E1.96437
M73 P0 R149
G1 X92.626 Y114.697 E0.03316
G1 X91.627 Y114.379 E0.03287
G1 X90.566 Y113.794 E0.03800
G1 X89.626 Y112.980 E0.03898
G1 X89.566 Y112.905 E0.00303
G1 X89.754 Y112.534 F10800.000
G1 F1200.000
G1 X89.344 Y112.015 E0.02075
G1 X89.047 Y111.461 E0.01972
G1 X61.097 Y111.458 E0.87635
;WIPE_START
G1 F8640.000
G1 X64.388 Y111.459 E-0.76000
;WIPE_END
G1 E-0.04000 F2100.000
G1 Z0.600 F10800.000
G1 X51.023 Y111.458
G1 Z0.200
G1 E0.80000 F2100.000
G1 F1200.000
G1 X13.708 Y111.455 E1.17001
G1 X12.732 Y111.334 E0.03081
G1 X11.768 Y111.029 E0.03170
G1 X10.886 Y110.556 E0.03140
G1 X10.104 Y109.929 E0.03144
G1 X9.447 Y109.164 E0.03162
G1 X8.955 Y108.320 E0.03060
G1 X8.613 Y107.367 E0.03177
G1 X8.455 Y106.387 E0.03113
G1 X8.445 Y100.808 E0.17491
G1 X8.493 Y100.241 E0.01786
G1 X8.599 Y99.684 E0.01776
G1 X8.899 Y98.805 E0.02912
G1 X9.419 Y97.874 E0.03345
G1 X9.967 Y97.209 E0.02701
G1 X10.609 Y96.639 E0.02690
G1 X11.284 Y96.205 E0.02516
G1 X12.009 Y95.876 E0.02499
G1 X12.779 Y95.655 E0.02512
G1 X13.555 Y95.552 E0.02454
G1 X99.115 Y95.551 E2.68265
M73 P1 R149
M73 Q1 S151
G1 X99.840 Y95.651 E0.02297
G1 X100.529 Y95.852 E0.02248
G1 X101.339 Y96.240 E0.02816
G1 X101.987 Y96.701 E0.02494
G1 X102.220 Y96.937 E0.01039
G1 X102.594 Y97.314 F10800.000
G1 F1200.000
G1 X103.110 Y98.047 E0.02812
G1 X103.443 Y98.760 E0.02468
G1 X103.660 Y99.513 E0.02455
G1 X103.757 Y100.363 E0.02685
G1 X103.759 Y101.967 E0.05029
G1 X103.658 Y102.400 E0.01394
G1 X103.759 Y102.832 E0.01392
G1 X103.759 Y103.541 E0.02221
G1 X147.241 Y103.541 E1.36333
G1 X147.241 Y102.832 E0.02221
G1 X147.342 Y102.400 E0.01392
G1 X147.241 Y101.967 E0.01395
G1 X147.244 Y100.349 E0.05072
G1 X147.331 Y99.560 E0.02487
G1 X147.531 Y98.829 E0.02379
G1 X147.853 Y98.114 E0.02458
G1 X148.337 Y97.391 E0.02729
G1 X148.411 Y97.313 E0.00337
G1 X148.771 Y96.936 F10800.000
G1 F1200.000
G1 X148.913 Y96.787 E0.00645
G1 X149.549 Y96.309 E0.02495
G1 X150.224 Y95.952 E0.02393
G1 X150.934 Y95.705 E0.02359
G1 X151.829 Y95.555 E0.02843
G1 X236.418 Y95.553 E2.65223
G1 X237.251 Y95.662 E0.02636
G1 X238.068 Y95.904 E0.02672
G1 X239.261 Y96.543 E0.04243
G1 X239.935 Y97.110 E0.02762
G1 X240.495 Y97.753 E0.02674
G1 X241.103 Y98.809 E0.03820
G1 X241.415 Y99.747 E0.03099
G1 X241.557 Y100.788 E0.03295
G1 X241.558 Y106.118 E0.16712
G1 X241.517 Y106.684 E0.01779
G1 X241.396 Y107.332 E0.02066
G1 X241.080 Y108.247 E0.03036
G1 X240.781 Y108.817 E0.02017
G1 X240.407 Y109.361 E0.02070
G1 X239.836 Y109.986 E0.02655
G1 X239.120 Y110.552 E0.02861
G1 X238.335 Y110.985 E0.02809
G1 X237.710 Y111.219 E0.02094
G1 X237.080 Y111.373 E0.02032
G1 X236.275 Y111.455 E0.02538
G1 X199.041 Y111.458 E1.16746
;WIPE_START
G1 F8640.000
G1 X202.332 Y111.458 E-0.76000
;WIPE_END
G1 E-0.04000 F2100.000
G1 Z0.600 F10800.000
G1 X188.954 Y111.459
G1 Z0.200
G1 E0.80000 F2100.000
G1 F1200.000
G1 X160.952 Y111.461 E0.87797
G1 X160.645 Y112.031 E0.02030
G1 X160.244 Y112.535 E0.02020
G1 X159.871 Y112.926 F10800.000
G1 F1200.000
G1 X159.278 Y113.443 E0.02466
G1 X158.244 Y114.024 E0.03718
G1 X157.309 Y114.325 E0.03081
G1 X156.313 Y114.457 E0.03149
G1 X93.687 Y114.457 E1.96361
G1 X92.724 Y114.333 E0.03043
G1 X91.760 Y114.026 E0.03174
G1 X90.766 Y113.474 E0.03563
G1 X90.134 Y112.926 E0.02625
G1 X90.275 Y112.554 F10800.000
G1 F1200.000
G1 X90.196 Y112.485 E0.00328
G1 X89.651 Y111.795 E0.02757
G1 X89.274 Y111.084 E0.02524
G1 X51.049 Y111.081 E1.19854
;WIPE_START
G1 F8640.000
G1 X54.340 Y111.081 E-0.76000
;WIPE_END
G1 E-0.04000 F2100.000
G1 Z0.600 F10800.000
G1 X40.980 Y111.081
G1 Z0.200
G1 E0.80000 F2100.000
G1 F1200.000
G1 X13.741 Y111.079 E0.85406
G1 X12.828 Y110.969 E0.02884
G1 X11.930 Y110.688 E0.02952
G1 X11.107 Y110.250 E0.02922
G1 X10.377 Y109.668 E0.02926
G1 X9.763 Y108.959 E0.02942
G1 X9.290 Y108.146 E0.02949
G1 X8.974 Y107.257 E0.02957
G1 X8.830 Y106.343 E0.02904
G1 X8.822 Y100.831 E0.17281
G1 X8.865 Y100.301 E0.01666
G1 X8.967 Y99.768 E0.01703
G1 X9.237 Y98.973 E0.02631
G1 X9.722 Y98.099 E0.03133
G1 X10.229 Y97.480 E0.02509
G1 X10.826 Y96.948 E0.02508
G1 X11.453 Y96.542 E0.02342
G1 X12.128 Y96.234 E0.02325
G1 X12.843 Y96.027 E0.02336
G1 X13.593 Y95.927 E0.02370
G1 X99.077 Y95.926 E2.68029
G1 X99.749 Y96.017 E0.02125
G1 X100.408 Y96.210 E0.02155
G1 X101.135 Y96.558 E0.02525
G1 X101.672 Y96.937 E0.02062
G1 X102.063 Y97.314 F10800.000
G1 F1200.000
G1 X102.353 Y97.606 E0.01291
G1 X102.789 Y98.247 E0.02430
G1 X103.086 Y98.879 E0.02191
G1 X103.287 Y99.572 E0.02261
G1 X103.380 Y100.375 E0.02534
G1 X103.382 Y101.943 E0.04918
G1 X103.269 Y102.400 E0.01475
G1 X103.382 Y102.856 E0.01474
G1 X103.382 Y103.918 E0.03328
G1 X147.618 Y103.918 E1.38697
G1 X147.618 Y102.856 E0.03328
G1 X147.731 Y102.400 E0.01474
G1 X147.618 Y101.943 E0.01476
G1 X147.621 Y100.360 E0.04963
G1 X147.704 Y99.618 E0.02342
G1 X147.891 Y98.944 E0.02193
G1 X148.176 Y98.310 E0.02180
G1 X148.621 Y97.639 E0.02525
G1 X148.932 Y97.313 E0.01413
G1 X149.340 Y96.936 F10800.000
G1 F1200.000
G1 X149.763 Y96.620 E0.01654
G1 X150.386 Y96.292 E0.02208
G1 X151.042 Y96.067 E0.02175
G1 X151.844 Y95.932 E0.02551
G1 X236.381 Y95.928 E2.65058
G1 X237.187 Y96.034 E0.02549
G1 X237.942 Y96.259 E0.02470
G1 X239.034 Y96.845 E0.03886
G1 X239.661 Y97.368 E0.02560
G1 X240.198 Y97.986 E0.02568
G1 X240.765 Y98.979 E0.03585
G1 X241.051 Y99.848 E0.02867
G1 X241.180 Y100.801 E0.03014
G1 X241.181 Y106.111 E0.16651
G1 X241.142 Y106.647 E0.01683
G1 X241.035 Y107.223 E0.01838
G1 X240.739 Y108.085 E0.02857
G1 X240.452 Y108.631 E0.01935
G1 X240.104 Y109.136 E0.01923
G1 X239.589 Y109.701 E0.02395
G1 X238.923 Y110.230 E0.02667
G1 X238.189 Y110.637 E0.02631
G1 X237.609 Y110.855 E0.01943
G1 X237.004 Y111.003 E0.01954
G1 X236.247 Y111.079 E0.02385
G1 X209.104 Y111.081 E0.85104
;WIPE_START
G1 F8640.000
G1 X212.396 Y111.080 E-0.76000
;WIPE_END
G1 E-0.04000 F2100.000
G1 Z0.600 F10800.000
G1 X199.021 Y111.081
G1 Z0.200
G1 E0.80000 F2100.000
G1 F1200.000
G1 X160.725 Y111.084 E1.20074
M73 Q1 S150
G1 X160.339 Y111.810 E0.02578
G1 X159.789 Y112.501 E0.02770
G1 X159.728 Y112.554 E0.00252
G1 X159.277 Y112.948 F10800.000
G1 F1200.000
G1 X159.075 Y113.124 E0.00839
G1 X158.110 Y113.671 E0.03478
G1 X157.210 Y113.961 E0.02965
G1 X156.301 Y114.080 E0.02873
G1 X93.699 Y114.080 E1.96284
G1 X92.791 Y113.961 E0.02874
G1 X91.894 Y113.673 E0.02954
G1 X90.967 Y113.155 E0.03328
G1 X90.729 Y112.948 E0.00988
G1 X90.870 Y112.576 F10800.000
G1 F1200.000
G1 X90.481 Y112.238 E0.01618
G1 X89.958 Y111.576 E0.02646
G1 X89.503 Y110.707 E0.03075
G1 X41.009 Y110.704 E1.52051
;WIPE_START
G1 F8640.000
G1 X44.300 Y110.704 E-0.76000
;WIPE_END
G1 E-0.04000 F2100.000
G1 Z0.600 F10800.000
G1 X30.945 Y110.704
G1 Z0.200
G1 E0.80000 F2100.000
G1 F1200.000
G1 X13.774 Y110.703 E0.53839
G1 X12.922 Y110.604 E0.02687
G1 X12.091 Y110.346 E0.02730
G1 X11.300 Y109.926 E0.02809
G1 X10.627 Y109.386 E0.02704
G1 X10.061 Y108.727 E0.02723
G1 X9.626 Y107.973 E0.02729
G1 X9.336 Y107.149 E0.02738
G1 X9.205 Y106.299 E0.02696
G1 X9.198 Y100.854 E0.17074
G1 X9.240 Y100.343 E0.01609
G1 X9.335 Y99.852 E0.01567
G1 X9.575 Y99.140 E0.02356
G1 X10.025 Y98.324 E0.02922
G1 X10.492 Y97.751 E0.02317
G1 X11.044 Y97.256 E0.02326
G1 X11.623 Y96.879 E0.02164
G1 X12.271 Y96.583 E0.02236
G1 X12.933 Y96.394 E0.02159
G1 X13.629 Y96.303 E0.02201
