; generated by PrusaSlicer 2.3.1+win64 on 2022-04-15 at 08:38:05 UTC

; 

; external perimeters extrusion width = 0.60mm
; perimeters extrusion width = 0.50mm
; infill extrusion width = 0.50mm
; solid infill extrusion width = 0.50mm
; top infill extrusion width = 0.45mm
; first layer extrusion width = 0.42mm

M73 P0 R65
M73 Q0 S66
M201 X1000 Y1000 Z200 E5000 ; sets maximum accelerations, mm/sec^2
M203 X200 Y200 Z12 E120 ; sets maximum feedrates, mm/sec
M204 P1250 R1250 T1250 ; sets acceleration (P, T) and retract acceleration (R), mm/sec^2
M205 X8.00 Y8.00 Z0.40 E4.50 ; sets the jerk limits, mm/sec
M205 S0 T0 ; sets the minimum extruding and travel feed rate, mm/sec
M107
;TYPE:Custom
M862.3 P "MK3" ; printer model check
M862.1 P0.4 ; nozzle diameter check
M115 U3.9.3 ; tell printer latest fw version
G90 ; use absolute coordinates
M83 ; extruder relative mode
M104 S215 ; set extruder temp
M140 S60 ; set bed temp
M190 S60 ; wait for bed temp
M109 S215 ; wait for extruder temp
G28 W ; home all without mesh bed level
G80 ; mesh bed leveling
G1 Y-3.0 F1000.0 ; go outside print area
G92 E0.0
G1 X60.0 E9.0 F1000.0 ; intro line
G1 X100.0 E12.5 F1000.0 ; intro line
G92 E0.0
M221 S95

; Don't change E values below. Excessive value can damage the printer.

M907 E538 ; set extruder motor current
G21 ; set units to millimeters
G90 ; use absolute coordinates
M83 ; use relative distances for extrusion
M900 K0.05 ; Filament gcode LA 1.5
M900 K30 ; Filament gcode LA 1.0
;LAYER_CHANGE
;Z:0.2
;HEIGHT:0.2
;BEFORE_LAYER_CHANGE
G92 E0.0
;0.2


G1 E-0.80000 F2100.000
G1 Z0.400 F10800.000
;AFTER_LAYER_CHANGE
;0.2
G1 X71.416 Y50.069
G1 Z0.200
G1 E0.80000 F2100.000
M204 S1000
;TYPE:Skirt
;WIDTH:0.42
G1 F1200.000
G1 X72.294 Y48.929 E0.04511
G1 X73.312 Y47.918 E0.04498
G1 X74.379 Y47.100 E0.04217
G1 X75.626 Y46.376 E0.04521
G1 X76.945 Y45.829 E0.04476
G1 X78.249 Y45.474 E0.04239
G1 X79.649 Y45.279 E0.04432
G1 X149.807 Y45.250 E2.19976
G1 X151.715 Y45.428 E0.06005
G1 X153.669 Y45.978 E0.06367
G1 X155.466 Y46.869 E0.06287
G1 X157.052 Y48.061 E0.06224
G1 X158.356 Y49.470 E0.06018
G1 X159.437 Y51.170 E0.06317
G1 X160.181 Y53.022 E0.06257
G1 X160.565 Y54.895 E0.05996
G1 X160.636 Y56.164 E0.03984
G1 X160.635 Y128.786 E2.27704
G1 X160.549 Y130.003 E0.03823
G1 X160.312 Y131.265 E0.04028
G1 X159.954 Y132.422 E0.03795
G1 X159.480 Y133.510 E0.03724
G1 X144.259 Y159.871 E0.95438
G1 X143.280 Y161.139 E0.05026
G1 X142.147 Y162.231 E0.04933
G1 X140.853 Y163.158 E0.04991
G1 X139.473 Y163.870 E0.04869
G1 X138.438 Y164.253 E0.03459
G1 X137.421 Y164.518 E0.03295
G1 X135.357 Y164.748 E0.06510
G1 X94.963 Y164.750 E1.26654
G1 X93.626 Y164.660 E0.04202
G1 X92.425 Y164.437 E0.03828
G1 X91.253 Y164.078 E0.03844
G1 X90.064 Y163.557 E0.04072
G1 X88.842 Y162.827 E0.04463
G1 X87.644 Y161.870 E0.04805
G1 X86.614 Y160.778 E0.04708
G1 X85.741 Y159.551 E0.04721
G1 X70.918 Y133.880 E0.92944
G1 X70.197 Y132.276 E0.05514
G1 X69.721 Y130.456 E0.05898
G1 X69.567 Y128.686 E0.05572
M73 Q0 S65
G1 X69.569 Y55.941 E2.28085
G1 X69.658 Y54.728 E0.03814
G1 X69.880 Y53.547 E0.03769
G1 X70.263 Y52.309 E0.04061
G1 X70.743 Y51.217 E0.03740
G1 X71.386 Y50.121 E0.03986
; printing object PCBV0.3-Body.stl id:0 copy 4
;WIPE_START
G1 F8640.000
G1 X72.294 Y48.929 E-0.34594
G1 X73.312 Y47.918 E-0.33127
G1 X73.596 Y47.700 E-0.08279
;WIPE_END
G1 E-0.04000 F2100.000
G1 Z0.600 F10800.000
G1 X133.620 Y78.308
G1 Z0.200
G1 E0.80000 F2100.000
;TYPE:External perimeter
G1 F1200.000
G1 X133.763 Y78.010 E0.01037
G1 X133.963 Y77.746 E0.01037
G1 X134.211 Y77.527 E0.01037
G1 X134.497 Y77.362 E0.01037
G1 X134.811 Y77.256 E0.01037
G1 X135.139 Y77.215 E0.01037
G1 X135.469 Y77.240 E0.01037
G1 X135.787 Y77.329 E0.01037
G1 X136.082 Y77.480 E0.01037
G1 X136.340 Y77.687 E0.01037
G1 X136.553 Y77.940 E0.01037
G1 X136.711 Y78.231 E0.01037
G1 X136.809 Y78.547 E0.01037
G1 X136.842 Y78.876 E0.01037
G1 X136.809 Y79.205 E0.01037
G1 X136.711 Y79.521 E0.01037
G1 X136.553 Y79.811 E0.01037
G1 X136.340 Y80.065 E0.01037
G1 X136.084 Y80.269 E0.01029
G1 X135.861 Y80.391 E0.00795
G1 X135.550 Y80.495 E0.01029
G1 X135.222 Y80.536 E0.01037
G1 X134.892 Y80.512 E0.01037
G1 X134.574 Y80.422 E0.01037
G1 X134.279 Y80.271 E0.01037
G1 X134.021 Y80.065 E0.01037
G1 X133.808 Y79.811 E0.01037
G1 X133.650 Y79.521 E0.01037
G1 X133.553 Y79.207 E0.01030
G1 X133.521 Y78.947 E0.00821
G1 X133.538 Y78.628 E0.01002
G1 X133.605 Y78.366 E0.00848
G1 X133.407 Y78.054 F10800.000
;WIPE_START
G1 F8640.000
G1 X133.763 Y78.010 E-0.09000
G1 X133.963 Y77.746 E-0.07638
G1 X134.211 Y77.527 E-0.07638
G1 X134.497 Y77.362 E-0.07638
G1 X134.811 Y77.256 E-0.07638
G1 X135.139 Y77.215 E-0.07638
G1 X135.469 Y77.240 E-0.07638
G1 X135.787 Y77.329 E-0.07638
G1 X136.082 Y77.480 E-0.07638
G1 X136.281 Y77.640 E-0.05896
;WIPE_END
G1 E-0.04000 F2100.000
G1 Z0.600 F10800.000
G1 X133.845 Y80.889
G1 Z0.200
G1 E0.80000 F2100.000
;TYPE:Perimeter
G1 F1200.000
G1 X134.297 Y81.128 E0.01602
G1 X134.760 Y81.258 E0.01510
G1 X135.241 Y81.294 E0.01510
G1 X135.719 Y81.234 E0.01510
G1 X136.164 Y81.085 E0.01472
G1 X136.516 Y80.889 E0.01263
G1 X136.500 Y81.568 E0.02130
G1 X136.429 Y81.854 E0.00924
G1 X136.285 Y82.131 E0.00979
G1 X136.071 Y82.375 E0.01016
G1 X135.814 Y82.553 E0.00979
G1 X135.625 Y82.636 E0.00648
G1 X135.254 Y82.705 E0.01183
G1 X134.952 Y82.691 E0.00949
G1 X134.664 Y82.608 E0.00939
G1 X134.480 Y82.515 E0.00648
G1 X134.290 Y82.375 E0.00740
G1 X134.156 Y82.234 E0.00610
G1 X133.999 Y81.999 E0.00887
G1 X133.889 Y81.719 E0.00942
G1 X133.852 Y81.504 E0.00685
G1 X133.845 Y80.949 E0.01739
;WIPE_START
G1 F8640.000
G1 X134.297 Y81.128 E-0.11222
G1 X134.760 Y81.258 E-0.11123
G1 X135.241 Y81.294 E-0.11123
G1 X135.719 Y81.234 E-0.11123
G1 X136.164 Y81.085 E-0.10843
G1 X136.516 Y80.889 E-0.09305
G1 X136.505 Y81.377 E-0.11261
;WIPE_END
G1 E-0.04000 F2100.000
G1 Z0.600 F10800.000
G1 X133.468 Y79.975
G1 Z0.200
G1 E0.80000 F2100.000
G1 F1200.000
G1 X133.756 Y80.336 E0.01450
G1 X134.074 Y80.589 E0.01274
G1 X134.435 Y80.775 E0.01274
G1 X134.826 Y80.885 E0.01274
G1 X135.231 Y80.915 E0.01274
G1 X135.635 Y80.865 E0.01274
G1 X136.013 Y80.738 E0.01251
G1 X136.293 Y80.585 E0.01002
G1 X136.605 Y80.336 E0.01251
G1 X136.893 Y79.975 E0.01450
G1 X136.893 Y81.362 E0.04349
G1 X136.874 Y81.628 E0.00838
G1 X136.788 Y81.973 E0.01113
G1 X136.732 Y82.107 E0.00456
G1 X136.511 Y82.460 E0.01306
G1 X136.328 Y82.652 E0.00830
G1 X135.993 Y82.886 E0.01284
G1 X135.618 Y83.033 E0.01261
G1 X135.273 Y83.084 E0.01092
G1 X134.906 Y83.067 E0.01153
G1 X134.764 Y83.038 E0.00454
G1 X134.520 Y82.958 E0.00808
G1 X134.157 Y82.753 E0.01306
G1 X133.860 Y82.470 E0.01284
G1 X133.667 Y82.181 E0.01090
G1 X133.522 Y81.806 E0.01261
G1 X133.476 Y81.545 E0.00830
G1 X133.468 Y81.369 E0.00554
G1 X133.468 Y80.035 E0.04183
;WIPE_START
G1 F8640.000
G1 X133.756 Y80.336 E-0.09633
G1 X134.074 Y80.589 E-0.09380
G1 X134.435 Y80.775 E-0.09380
G1 X134.826 Y80.885 E-0.09380
G1 X135.231 Y80.915 E-0.09380
G1 X135.635 Y80.865 E-0.09380
G1 X136.013 Y80.738 E-0.09210
G1 X136.293 Y80.585 E-0.07376
G1 X136.391 Y80.507 E-0.02878
;WIPE_END
G1 E-0.04000 F2100.000
G1 Z0.600 F10800.000
G1 X120.367 Y57.535
G1 Z0.200
G1 E0.80000 F2100.000
G1 F1200.000
G1 X119.779 Y57.177 E0.02159
G1 X119.576 Y56.981 E0.00886
G1 X119.468 Y56.833 E0.00573
G1 X119.378 Y56.660 E0.00610
G1 X119.313 Y56.477 E0.00610
G1 X119.277 Y56.285 E0.00610
G1 X119.269 Y56.091 E0.00610
G1 X119.290 Y55.897 E0.00610
G1 X119.339 Y55.709 E0.00610
G1 X119.482 Y55.409 E0.01042
G1 X119.607 Y55.244 E0.00648
G1 X119.746 Y55.108 E0.00610
G1 X119.903 Y54.993 E0.00610
G1 X120.075 Y54.903 E0.00610
G1 X120.259 Y54.839 E0.00610
G1 X120.450 Y54.802 E0.00610
G1 X120.633 Y54.795 E0.00573
G1 X120.913 Y54.832 E0.00887
G1 X121.207 Y54.939 E0.00979
G1 X121.696 Y55.221 E0.01772
G1 X121.369 Y55.410 E0.01187
G1 X121.073 Y55.658 E0.01209
G1 X120.772 Y56.018 E0.01472
G1 X120.541 Y56.441 E0.01510
G1 X120.399 Y56.901 E0.01510
G1 X120.351 Y57.381 E0.01510
G1 X120.361 Y57.476 E0.00300
G1 X120.890 Y58.173 F10800.000
G1 F1200.000
G1 X120.970 Y58.319 E0.00521
G1 X119.761 Y57.621 E0.04377
G1 X119.540 Y57.471 E0.00838
G1 X119.290 Y57.229 E0.01090
G1 X119.147 Y57.033 E0.00762
G1 X119.031 Y56.811 E0.00785
G1 X118.948 Y56.575 E0.00785
G1 X118.901 Y56.329 E0.00785
G1 X118.891 Y56.079 E0.00785
G1 X118.918 Y55.830 E0.00785
G1 X118.981 Y55.587 E0.00785
G1 X119.081 Y55.350 E0.00807
G1 X119.167 Y55.201 E0.00541
G1 X119.322 Y54.995 E0.00808
G1 X119.501 Y54.820 E0.00785
G1 X119.703 Y54.672 E0.00785
G1 X119.925 Y54.556 E0.00785
G1 X120.161 Y54.474 E0.00785
G1 X120.407 Y54.427 E0.00785
G1 X120.650 Y54.417 E0.00762
G1 X120.995 Y54.462 E0.01090
G1 X121.234 Y54.537 E0.00785
G1 X121.379 Y54.603 E0.00501
G1 X122.670 Y55.347 E0.04671
G1 X122.316 Y55.392 E0.01117
G1 X121.931 Y55.521 E0.01274
G1 X121.586 Y55.720 E0.01251
G1 X121.341 Y55.926 E0.01002
G1 X121.085 Y56.231 E0.01251
G1 X120.890 Y56.588 E0.01274
G1 X120.771 Y56.976 E0.01274
G1 X120.730 Y57.381 E0.01274
G1 X120.771 Y57.785 E0.01274
G1 X120.873 Y58.116 E0.01086
G1 X121.233 Y58.005 F10800.000
;TYPE:External perimeter
G1 F1200.000
G1 X121.142 Y57.710 E0.00967
G1 X121.109 Y57.381 E0.01037
G1 X121.142 Y57.051 E0.01037
G1 X121.240 Y56.735 E0.01037
G1 X121.398 Y56.445 E0.01037
G1 X121.609 Y56.193 E0.01029
G1 X121.803 Y56.031 E0.00795
G1 X122.087 Y55.866 E0.01029
G1 X122.401 Y55.761 E0.01037
G1 X122.729 Y55.720 E0.01037
G1 X123.059 Y55.745 E0.01037
G1 X123.377 Y55.834 E0.01037
G1 X123.672 Y55.985 E0.01037
G1 X123.930 Y56.191 E0.01037
G1 X124.143 Y56.445 E0.01037
G1 X124.300 Y56.733 E0.01029
G1 X124.380 Y56.973 E0.00795
G1 X124.429 Y57.298 E0.01029
G1 X124.413 Y57.628 E0.01037
G1 X124.331 Y57.949 E0.01037
G1 X124.188 Y58.247 E0.01037
G1 X123.988 Y58.510 E0.01037
G1 X123.740 Y58.729 E0.01037
G1 X123.453 Y58.895 E0.01037
G1 X123.140 Y59.000 E0.01037
G1 X122.812 Y59.041 E0.01037
G1 X122.482 Y59.016 E0.01037
G1 X122.163 Y58.927 E0.01037
G1 X121.869 Y58.776 E0.01037
G1 X121.610 Y58.570 E0.01037
G1 X121.398 Y58.316 E0.01037
G1 X121.258 Y58.059 E0.00919
G1 X120.927 Y57.965 F10800.000
;WIPE_START
G1 F8640.000
G1 X121.142 Y57.710 E-0.08494
G1 X121.109 Y57.381 E-0.07638
G1 X121.142 Y57.051 E-0.07638
G1 X121.240 Y56.735 E-0.07638
G1 X121.398 Y56.445 E-0.07638
G1 X121.609 Y56.193 E-0.07577
G1 X121.803 Y56.031 E-0.05853
G1 X122.087 Y55.866 E-0.07577
G1 X122.401 Y55.761 E-0.07638
G1 X122.729 Y55.720 E-0.07638
G1 X122.758 Y55.722 E-0.00672
;WIPE_END
G1 E-0.04000 F2100.000
G1 Z0.600 F10800.000
G1 X123.841 Y59.541
G1 Z0.200
G1 E0.80000 F2100.000
;TYPE:Perimeter
G1 F1200.000
G1 X124.182 Y59.345 E0.01234
G1 X124.544 Y59.026 E0.01510
G1 X124.834 Y58.642 E0.01510
G1 X125.043 Y58.208 E0.01510
G1 X125.162 Y57.741 E0.01510
G1 X125.182 Y57.232 E0.01596
G1 X129.962 Y59.990 E0.17304
G1 X130.825 Y60.435 E0.03043
G1 X131.750 Y60.805 E0.03123
G1 X132.705 Y61.086 E0.03123
G1 X133.683 Y61.274 E0.03123
G1 X134.675 Y61.369 E0.03123
G1 X135.675 Y61.369 E0.03137
G1 X136.195 Y61.332 E0.01634
G1 X137.158 Y61.193 E0.03051
G1 X137.667 Y61.083 E0.01634
G1 X138.611 Y60.805 E0.03087
G1 X139.536 Y60.435 E0.03123
G1 X140.399 Y59.990 E0.03043
G1 X145.188 Y57.225 E0.17341
G1 X145.175 Y57.478 E0.00794
G1 X145.223 Y57.870 E0.01237
G1 X145.362 Y58.320 E0.01478
G1 X145.592 Y58.743 E0.01510
G1 X145.902 Y59.112 E0.01510
G1 X146.278 Y59.413 E0.01510
G1 X146.524 Y59.539 E0.00867
G1 X141.735 Y62.304 E0.17341
G1 X140.928 Y62.823 E0.03007
G1 X140.511 Y63.135 E0.01634
G1 X139.767 Y63.780 E0.03087
G1 X139.079 Y64.500 E0.03123
G1 X138.464 Y65.284 E0.03124
G1 X137.916 Y66.138 E0.03181
G1 X137.466 Y67.010 E0.03078
G1 X137.261 Y67.489 E0.01634
G1 X136.939 Y68.419 E0.03087
G1 X136.704 Y69.387 E0.03123
G1 X136.563 Y70.373 E0.03123
G1 X136.516 Y71.342 E0.03043
G1 X136.516 Y76.862 E0.17308
G1 X136.064 Y76.624 E0.01602
G1 X135.601 Y76.493 E0.01510
G1 X135.120 Y76.457 E0.01510
G1 X134.642 Y76.517 E0.01510
G1 X134.186 Y76.671 E0.01510
G1 X133.845 Y76.868 E0.01234
G1 X133.845 Y71.342 E0.17324
G1 X133.798 Y70.373 E0.03043
G1 X133.657 Y69.387 E0.03123
G1 X133.422 Y68.419 E0.03123
G1 X133.096 Y67.478 E0.03123
G1 X132.682 Y66.572 E0.03123
G1 X132.176 Y65.696 E0.03173
G1 X131.605 Y64.894 E0.03087
G1 X131.274 Y64.492 E0.01634
G1 X130.594 Y63.780 E0.03087
M73 P0 R64
G1 X129.850 Y63.135 E0.03087
G1 X129.433 Y62.823 E0.01634
G1 X128.627 Y62.304 E0.03007
G1 X123.893 Y59.571 E0.17136
;WIPE_START
G1 F8640.000
G1 X124.182 Y59.345 E-0.08482
G1 X124.544 Y59.026 E-0.11123
G1 X124.834 Y58.642 E-0.11123
G1 X125.043 Y58.208 E-0.11123
G1 X125.162 Y57.741 E-0.11123
G1 X125.182 Y57.232 E-0.11757
G1 X125.605 Y57.476 E-0.11269
;WIPE_END
G1 E-0.04000 F2100.000
G1 Z0.600 F10800.000
G1 X122.867 Y59.414
G1 Z0.200
G1 E0.80000 F2100.000
G1 F1200.000
G1 X123.224 Y59.369 E0.01129
G1 X123.609 Y59.240 E0.01274
G1 X123.961 Y59.037 E0.01274
G1 X124.266 Y58.768 E0.01274
G1 X124.511 Y58.444 E0.01274
G1 X124.687 Y58.078 E0.01274
G1 X124.788 Y57.685 E0.01274
G1 X124.808 Y57.279 E0.01274
G1 X124.748 Y56.884 E0.01251
G1 X124.647 Y56.582 E0.01002
G1 X124.572 Y56.445 E0.00488
G1 X130.143 Y59.659 E0.20166
G1 X130.982 Y60.092 E0.02958
G1 X131.873 Y60.448 E0.03010
G1 X132.794 Y60.719 E0.03010
G1 X133.737 Y60.901 E0.03010
G1 X134.692 Y60.992 E0.03010
G1 X135.662 Y60.992 E0.03039
G1 X136.154 Y60.957 E0.01549
G1 X137.091 Y60.822 E0.02966
G1 X137.574 Y60.717 E0.01549
G1 X138.488 Y60.448 E0.02988
G1 X139.379 Y60.092 E0.03010
G1 X140.218 Y59.659 E0.02959
G1 X145.789 Y56.443 E0.20171
G1 X145.674 Y56.683 E0.00836
G1 X145.574 Y57.076 E0.01272
G1 X145.553 Y57.465 E0.01222
G1 X145.593 Y57.791 E0.01029
G1 X145.711 Y58.173 E0.01254
G1 X145.905 Y58.530 E0.01274
G1 X146.166 Y58.841 E0.01274
G1 X146.484 Y59.094 E0.01274
G1 X146.845 Y59.280 E0.01274
G1 X147.237 Y59.390 E0.01274
G1 X147.502 Y59.410 E0.00836
G1 X141.931 Y62.626 E0.20171
G1 X141.143 Y63.133 E0.02937
G1 X140.747 Y63.429 E0.01549
G1 X140.027 Y64.053 E0.02988
G1 X139.365 Y64.748 E0.03010
G1 X138.771 Y65.502 E0.03011
G1 X138.243 Y66.326 E0.03068
G1 X137.808 Y67.171 E0.02980
G1 X137.613 Y67.625 E0.01549
G1 X137.301 Y68.526 E0.02988
G1 X137.075 Y69.459 E0.03010
G1 X136.938 Y70.409 E0.03010
G1 X136.893 Y71.351 E0.02959
G1 X136.893 Y77.777 E0.20146
G1 X136.605 Y77.415 E0.01450
G1 X136.287 Y77.162 E0.01274
G1 X135.926 Y76.977 E0.01274
G1 X135.535 Y76.867 E0.01274
G1 X135.130 Y76.836 E0.01274
G1 X134.727 Y76.887 E0.01274
G1 X134.342 Y77.016 E0.01274
G1 X133.990 Y77.219 E0.01274
M73 P1 R64
G1 X133.685 Y77.488 E0.01274
G1 X133.468 Y77.775 E0.01129
G1 X133.468 Y71.351 E0.20142
M73 Q1 S65
G1 X133.423 Y70.409 E0.02959
G1 X133.286 Y69.459 E0.03010
G1 X133.060 Y68.526 E0.03010
G1 X132.746 Y67.618 E0.03010
G1 X132.347 Y66.745 E0.03010
G1 X131.859 Y65.900 E0.03061
G1 X131.306 Y65.124 E0.02988
G1 X130.992 Y64.743 E0.01549
G1 X130.334 Y64.053 E0.02988
G1 X129.614 Y63.429 E0.02988
G1 X129.218 Y63.133 E0.01549
G1 X128.430 Y62.626 E0.02937
G1 X122.919 Y59.444 E0.19954
;WIPE_START
G1 F8640.000
G1 X123.224 Y59.369 E-0.07259
G1 X123.609 Y59.240 E-0.09380
G1 X123.961 Y59.037 E-0.09380
G1 X124.266 Y58.768 E-0.09380
G1 X124.511 Y58.444 E-0.09380
G1 X124.687 Y58.078 E-0.09380
G1 X124.788 Y57.685 E-0.09380
G1 X124.808 Y57.279 E-0.09380
G1 X124.788 Y57.147 E-0.03078
;WIPE_END
G1 E-0.04000 F2100.000
G1 Z0.600 F10800.000
G1 X145.932 Y57.452
G1 Z0.200
G1 E0.80000 F2100.000
;TYPE:External perimeter
G1 F1200.000
G1 X145.948 Y57.133 E0.01002
G1 X146.030 Y56.812 E0.01036
G1 X146.173 Y56.514 E0.01037
G1 X146.373 Y56.251 E0.01037
G1 X146.621 Y56.032 E0.01037
G1 X146.908 Y55.866 E0.01037
G1 X147.221 Y55.761 E0.01037
G1 X147.549 Y55.720 E0.01037
G1 X147.879 Y55.745 E0.01037
G1 X148.198 Y55.834 E0.01037
G1 X148.492 Y55.985 E0.01037
G1 X148.751 Y56.191 E0.01037
G1 X148.963 Y56.445 E0.01037
G1 X149.121 Y56.735 E0.01037
G1 X149.219 Y57.051 E0.01037
G1 X149.252 Y57.381 E0.01037
G1 X149.219 Y57.710 E0.01037
G1 X149.121 Y58.026 E0.01037
G1 X148.963 Y58.316 E0.01037
G1 X148.751 Y58.570 E0.01037
G1 X148.494 Y58.775 E0.01030
G1 X148.263 Y58.899 E0.00821
G1 X147.960 Y59.000 E0.01002
G1 X147.632 Y59.041 E0.01036
G1 X147.302 Y59.016 E0.01037
G1 X146.984 Y58.927 E0.01037
G1 X146.690 Y58.776 E0.01037
