; generated by PrusaSlicer 2.3.1+win64 on 2022-03-08 at 06:41:35 UTC

; 

; external perimeters extrusion width = 0.45mm
; perimeters extrusion width = 0.45mm
; infill extrusion width = 0.45mm
; solid infill extrusion width = 0.45mm
; top infill extrusion width = 0.40mm
; first layer extrusion width = 0.42mm

M73 P0 R22
M73 Q0 S23
M201 X1000 Y1000 Z200 E5000 ; sets maximum accelerations, mm/sec^2
M203 X200 Y200 Z12 E120 ; sets maximum feedrates, mm/sec
M204 P1250 R1250 T1250 ; sets acceleration (P, T) and retract acceleration (R), mm/sec^2
M205 X8.00 Y8.00 Z0.40 E4.50 ; sets the jerk limits, mm/sec
M205 S0 T0 ; sets the minimum extruding and travel feed rate, mm/sec
M107
;TYPE:Custom
M862.3 P "MK3" ; printer model check
M862.1 P0.4 ; nozzle diameter check
M115 U3.9.3 ; tell printer latest fw version
G90 ; use absolute coordinates
M83 ; extruder relative mode
M104 S215 ; set extruder temp
M140 S60 ; set bed temp
M190 S60 ; wait for bed temp
M109 S215 ; wait for extruder temp
G28 W ; home all without mesh bed level
G80 ; mesh bed leveling
G1 Y-3.0 F1000.0 ; go outside print area
G92 E0.0
G1 X60.0 E9.0 F1000.0 ; intro line
G1 X100.0 E12.5 F1000.0 ; intro line
G92 E0.0
M221 S95

; Don't change E values below. Excessive value can damage the printer.
M907 E430 ; set extruder motor current
G21 ; set units to millimeters
G90 ; use absolute coordinates
M83 ; use relative distances for extrusion
M900 K0.05 ; Filament gcode LA 1.5
M900 K30 ; Filament gcode LA 1.0
;LAYER_CHANGE
;Z:0.2
;HEIGHT:0.2
;BEFORE_LAYER_CHANGE
G92 E0.0
;0.2


M73 Q0 S22
G1 E-0.80000 F2100.000
G1 Z0.400 F10800.000
;AFTER_LAYER_CHANGE
;0.2
G1 X78.289 Y99.042
G1 Z0.200
G1 E0.80000 F2100.000
M204 S1000
;TYPE:Skirt
;WIDTH:0.42
G1 F1200.000
G1 X78.546 Y98.340 E0.02343
G1 X79.009 Y97.754 E0.02343
G1 X79.627 Y97.341 E0.02331
G1 X80.347 Y97.139 E0.02343
G1 X169.383 Y97.123 E2.79166
G1 X170.285 Y97.302 E0.02884
G1 X171.048 Y97.808 E0.02872
G1 X171.564 Y98.565 E0.02872
G1 X171.756 Y99.461 E0.02872
G1 X171.727 Y110.868 E0.35766
G1 X171.486 Y111.599 E0.02414
G1 X171.027 Y112.212 E0.02402
G1 X170.394 Y112.650 E0.02414
G1 X169.653 Y112.861 E0.02414
G1 X107.202 Y112.872 E1.95814
M73 P1 R22
M73 Q1 S22
G1 X80.209 Y109.841 E0.85166
G1 X79.492 Y109.592 E0.02378
G1 X78.891 Y109.130 E0.02378
G1 X78.467 Y108.505 E0.02367
G1 X78.260 Y107.775 E0.02378
G1 X78.288 Y99.102 E0.27195
; printing object breakoutboard-holderV2.stl id:0 copy 0
;WIPE_START
G1 F8640.000
G1 X78.546 Y98.340 E-0.18563
G1 X79.009 Y97.754 E-0.17255
G1 X79.627 Y97.341 E-0.17168
G1 X80.347 Y97.139 E-0.17255
G1 X80.596 Y97.139 E-0.05761
;WIPE_END
G1 E-0.04000 F2100.000
G1 Z0.600 F10800.000
G1 X81.408 Y100.287
G1 Z0.200
G1 E0.80000 F2100.000
;TYPE:Perimeter
G1 F1200.000
G1 X112.368 Y100.299 E0.97073
G1 X112.430 Y100.328 E0.00213
G1 X112.507 Y100.417 E0.00370
G1 X112.527 Y100.504 E0.00281
G1 X112.527 Y100.713 E0.00654
G1 X111.028 Y100.713 E0.04701
G1 X111.028 Y104.087 E0.10579
G1 X112.528 Y104.087 E0.04703
G1 X112.528 Y104.513 E0.01335
G1 X111.028 Y104.513 E0.04703
G1 X111.028 Y108.287 E0.11834
G1 X167.002 Y108.287 E1.75503
G1 X167.002 Y104.513 E0.11834
G1 X165.502 Y104.513 E0.04703
G1 X165.502 Y104.087 E0.01335
G1 X167.002 Y104.087 E0.04703
G1 X167.002 Y100.713 E0.10579
G1 X165.503 Y100.713 E0.04701
G1 X165.503 Y100.519 E0.00608
G1 X165.538 Y100.391 E0.00417
G1 X165.584 Y100.341 E0.00212
G1 X165.678 Y100.296 E0.00328
G1 X168.592 Y100.289 E0.09135
G1 X168.592 Y109.713 E0.29550
G1 X107.392 Y109.711 E1.91886
M73 P2 R22
M73 Q2 S22
G1 X107.202 Y109.678 E0.00605
G1 X107.046 Y109.609 E0.00536
G1 X106.905 Y109.499 E0.00559
G1 X106.823 Y109.399 E0.00407
G1 X106.725 Y109.180 E0.00751
G1 X106.679 Y108.652 E0.01664
G1 X106.572 Y108.222 E0.01389
G1 X106.381 Y107.818 E0.01401
G1 X106.114 Y107.459 E0.01401
G1 X105.783 Y107.159 E0.01401
G1 X105.406 Y106.933 E0.01379
G1 X105.080 Y106.807 E0.01097
G1 X104.649 Y106.721 E0.01378
G1 X81.408 Y106.713 E0.72868
G1 X81.408 Y100.347 E0.19960
;WIPE_START
G1 F8640.000
G1 X84.700 Y100.342 E-0.76000
;WIPE_END
G1 E-0.04000 F2100.000
G1 Z0.600 F10800.000
G1 X111.405 Y101.090
G1 Z0.200
G1 E0.80000 F2100.000
;TYPE:External perimeter
G1 F1200.000
G1 X111.405 Y103.710 E0.08215
G1 X112.905 Y103.710 E0.04703
G1 X112.905 Y104.890 E0.03700
G1 X111.405 Y104.890 E0.04703
G1 X111.405 Y107.910 E0.09469
G1 X166.625 Y107.910 E1.73138
G1 X166.625 Y104.890 E0.09469
G1 X165.125 Y104.890 E0.04703
G1 X165.125 Y103.710 E0.03700
G1 X166.625 Y103.710 E0.04703
G1 X166.625 Y101.090 E0.08215
G1 X165.125 Y101.090 E0.04702
G1 X165.126 Y100.482 E0.01907
G1 X165.162 Y100.299 E0.00583
G1 X165.225 Y100.175 E0.00435
G1 X165.342 Y100.046 E0.00548
G1 X165.492 Y99.956 E0.00550
G1 X165.627 Y99.919 E0.00436
G1 X168.969 Y99.911 E0.10479
G1 X168.969 Y110.090 E0.31917
G1 X107.360 Y110.088 E1.93171
G1 X107.092 Y110.042 E0.00852
G1 X106.851 Y109.935 E0.00828
G1 X106.640 Y109.771 E0.00836
G1 X106.508 Y109.609 E0.00655
G1 X106.407 Y109.421 E0.00671
G1 X106.358 Y109.272 E0.00490
G1 X106.330 Y109.112 E0.00510
G1 X106.305 Y108.710 E0.01263
G1 X106.215 Y108.350 E0.01164
G1 X106.056 Y108.013 E0.01169
G1 X105.834 Y107.713 E0.01169
G1 X105.557 Y107.463 E0.01168
G1 X105.240 Y107.273 E0.01160
G1 X104.974 Y107.170 E0.00893
G1 X104.611 Y107.098 E0.01160
G1 X81.031 Y107.090 E0.73934
G1 X81.031 Y99.910 E0.22513
G1 X112.336 Y99.911 E0.98153
M73 P3 R22
M73 Q3 S22
G1 X112.483 Y99.937 E0.00469
G1 X112.641 Y100.011 E0.00549
G1 X112.771 Y100.129 E0.00548
G1 X112.848 Y100.251 E0.00452
G1 X112.904 Y100.476 E0.00729
G1 X112.905 Y101.090 E0.01924
G1 X111.465 Y101.090 E0.04514
G1 X111.008 Y101.142 F10800.000
;WIPE_START
G1 F8640.000
G1 X111.405 Y103.710 E-0.60512
G1 X112.076 Y103.710 E-0.15488
;WIPE_END
G1 E-0.04000 F2100.000
G1 Z0.600 F10800.000
G1 X168.479 Y101.168
G1 Z0.200
G1 E0.80000 F2100.000
;TYPE:Solid infill
;WIDTH:0.421794
G1 F1200.000
G1 X167.884 Y100.573 E0.02650
G1 X167.349 Y100.574 E0.01684
G1 X168.309 Y101.534 E0.04276
G1 X168.309 Y102.070 E0.01688
G1 X167.285 Y101.046 E0.04562
G1 X167.285 Y101.582 E0.01688
G1 X168.309 Y102.606 E0.04562
G1 X168.309 Y103.141 E0.01688
G1 X167.285 Y102.117 E0.04562
G1 X167.285 Y102.653 E0.01688
G1 X168.309 Y103.677 E0.04562
G1 X168.309 Y104.213 E0.01688
G1 X167.285 Y103.189 E0.04562
G1 X167.285 Y103.725 E0.01688
G1 X168.309 Y104.749 E0.04562
G1 X168.309 Y105.285 E0.01688
G1 X167.285 Y104.261 E0.04562
G1 X167.285 Y104.797 E0.01688
G1 X168.309 Y105.821 E0.04562
G1 X168.309 Y106.356 E0.01688
G1 X167.285 Y105.332 E0.04562
G1 X167.285 Y105.868 E0.01688
G1 X168.309 Y106.892 E0.04562
G1 X168.309 Y107.428 E0.01688
G1 X167.285 Y106.404 E0.04562
G1 X167.285 Y106.940 E0.01688
G1 X168.309 Y107.964 E0.04562
G1 X168.309 Y108.500 E0.01688
G1 X167.285 Y107.476 E0.04562
G1 X167.285 Y108.011 E0.01688
G1 X168.309 Y109.035 E0.04562
G1 X168.309 Y109.430 E0.01244
G1 X168.168 Y109.430 E0.00444
G1 X167.285 Y108.547 E0.03934
G1 X167.285 Y108.570 E0.00072
G1 X166.772 Y108.570 E0.01616
G1 X167.632 Y109.430 E0.03832
G1 X167.096 Y109.430 E0.01688
G1 X166.236 Y108.570 E0.03832
G1 X165.700 Y108.570 E0.01688
G1 X166.560 Y109.430 E0.03832
G1 X166.025 Y109.430 E0.01688
G1 X165.164 Y108.570 E0.03832
G1 X164.629 Y108.570 E0.01688
G1 X165.489 Y109.430 E0.03832
G1 X164.953 Y109.430 E0.01688
G1 X164.093 Y108.570 E0.03832
G1 X163.557 Y108.570 E0.01688
G1 X164.417 Y109.430 E0.03832
G1 X163.881 Y109.430 E0.01688
G1 X163.021 Y108.570 E0.03832
G1 X162.485 Y108.570 E0.01688
G1 X163.345 Y109.430 E0.03832
G1 X162.810 Y109.430 E0.01688
G1 X161.950 Y108.570 E0.03832
G1 X161.414 Y108.570 E0.01688
G1 X162.274 Y109.430 E0.03832
G1 X161.738 Y109.430 E0.01688
G1 X160.878 Y108.570 E0.03832
G1 X160.342 Y108.570 E0.01688
G1 X161.202 Y109.430 E0.03832
G1 X160.666 Y109.430 E0.01688
G1 X159.806 Y108.570 E0.03832
G1 X159.270 Y108.570 E0.01688
G1 X160.130 Y109.430 E0.03832
G1 X159.595 Y109.430 E0.01688
G1 X158.735 Y108.570 E0.03832
G1 X158.199 Y108.570 E0.01688
G1 X159.059 Y109.430 E0.03831
G1 X158.523 Y109.430 E0.01688
G1 X157.663 Y108.570 E0.03831
G1 X157.127 Y108.570 E0.01688
G1 X157.987 Y109.430 E0.03831
G1 X157.451 Y109.430 E0.01688
G1 X156.591 Y108.570 E0.03831
G1 X156.056 Y108.570 E0.01688
G1 X156.916 Y109.430 E0.03831
G1 X156.380 Y109.430 E0.01688
G1 X155.520 Y108.570 E0.03831
G1 X154.984 Y108.570 E0.01688
G1 X155.844 Y109.430 E0.03831
G1 X155.308 Y109.430 E0.01688
G1 X154.448 Y108.570 E0.03831
G1 X153.912 Y108.570 E0.01688
G1 X154.772 Y109.430 E0.03831
G1 X154.236 Y109.430 E0.01688
G1 X153.377 Y108.570 E0.03831
G1 X152.841 Y108.570 E0.01688
G1 X153.701 Y109.430 E0.03831
G1 X153.165 Y109.430 E0.01688
G1 X152.305 Y108.570 E0.03831
G1 X151.769 Y108.570 E0.01688
G1 X152.629 Y109.430 E0.03831
G1 X152.093 Y109.430 E0.01688
G1 X151.233 Y108.570 E0.03831
G1 X150.698 Y108.570 E0.01688
G1 X151.557 Y109.430 E0.03831
G1 X151.021 Y109.430 E0.01688
G1 X150.162 Y108.570 E0.03831
G1 X149.626 Y108.570 E0.01688
G1 X150.486 Y109.430 E0.03830
G1 X149.950 Y109.430 E0.01688
G1 X149.090 Y108.570 E0.03830
G1 X148.554 Y108.570 E0.01688
G1 X149.414 Y109.430 E0.03830
G1 X148.878 Y109.430 E0.01688
G1 X148.018 Y108.570 E0.03830
G1 X147.483 Y108.570 E0.01688
G1 X148.342 Y109.430 E0.03830
G1 X147.807 Y109.430 E0.01688
G1 X146.947 Y108.570 E0.03830
G1 X146.411 Y108.570 E0.01688
G1 X147.271 Y109.430 E0.03830
G1 X146.735 Y109.430 E0.01688
G1 X145.875 Y108.570 E0.03830
G1 X145.339 Y108.570 E0.01688
G1 X146.199 Y109.430 E0.03830
G1 X145.663 Y109.430 E0.01688
G1 X144.804 Y108.570 E0.03830
G1 X144.268 Y108.570 E0.01688
G1 X145.127 Y109.429 E0.03830
G1 X144.592 Y109.429 E0.01688
G1 X143.732 Y108.570 E0.03830
G1 X143.196 Y108.570 E0.01688
G1 X144.056 Y109.429 E0.03830
G1 X143.520 Y109.429 E0.01688
G1 X142.660 Y108.570 E0.03830
G1 X142.125 Y108.570 E0.01688
G1 X142.984 Y109.429 E0.03830
G1 X142.448 Y109.429 E0.01688
G1 X141.589 Y108.570 E0.03830
G1 X141.053 Y108.570 E0.01688
G1 X141.913 Y109.429 E0.03829
G1 X141.377 Y109.429 E0.01688
G1 X140.517 Y108.570 E0.03829
G1 X139.981 Y108.570 E0.01688
G1 X140.841 Y109.429 E0.03829
G1 X140.305 Y109.429 E0.01688
G1 X139.446 Y108.570 E0.03829
G1 X138.910 Y108.570 E0.01688
G1 X139.769 Y109.429 E0.03829
G1 X139.233 Y109.429 E0.01688
G1 X138.374 Y108.570 E0.03829
G1 X137.838 Y108.570 E0.01688
G1 X138.698 Y109.429 E0.03829
G1 X138.162 Y109.429 E0.01688
G1 X137.302 Y108.570 E0.03829
G1 X136.766 Y108.570 E0.01688
G1 X137.626 Y109.429 E0.03829
G1 X137.090 Y109.429 E0.01688
G1 X136.231 Y108.570 E0.03829
G1 X135.695 Y108.570 E0.01688
G1 X136.554 Y109.429 E0.03829
G1 X136.018 Y109.429 E0.01688
G1 X135.159 Y108.570 E0.03829
G1 X134.623 Y108.570 E0.01688
G1 X135.483 Y109.429 E0.03829
G1 X134.947 Y109.429 E0.01688
G1 X134.087 Y108.570 E0.03829
G1 X133.552 Y108.570 E0.01688
G1 X134.411 Y109.429 E0.03829
G1 X133.875 Y109.429 E0.01688
G1 X133.016 Y108.570 E0.03829
G1 X132.480 Y108.570 E0.01688
G1 X133.339 Y109.429 E0.03828
G1 X132.804 Y109.429 E0.01688
G1 X131.944 Y108.570 E0.03828
G1 X131.408 Y108.570 E0.01688
G1 X132.268 Y109.429 E0.03828
G1 X131.732 Y109.429 E0.01688
G1 X130.873 Y108.570 E0.03828
G1 X130.337 Y108.570 E0.01688
G1 X131.196 Y109.429 E0.03828
G1 X130.660 Y109.429 E0.01688
G1 X129.801 Y108.570 E0.03828
G1 X129.265 Y108.570 E0.01688
G1 X130.124 Y109.429 E0.03828
G1 X129.589 Y109.429 E0.01688
G1 X128.729 Y108.570 E0.03828
G1 X128.194 Y108.570 E0.01688
G1 X129.053 Y109.429 E0.03828
G1 X128.517 Y109.429 E0.01688
G1 X127.658 Y108.570 E0.03828
G1 X127.122 Y108.570 E0.01688
G1 X127.981 Y109.429 E0.03828
G1 X127.445 Y109.429 E0.01688
G1 X126.586 Y108.570 E0.03828
G1 X126.050 Y108.570 E0.01688
G1 X126.909 Y109.429 E0.03828
G1 X126.374 Y109.429 E0.01688
G1 X125.515 Y108.570 E0.03828
G1 X124.979 Y108.570 E0.01688
G1 X125.838 Y109.429 E0.03828
G1 X125.302 Y109.429 E0.01688
G1 X124.443 Y108.570 E0.03828
G1 X123.907 Y108.570 E0.01688
G1 X124.766 Y109.429 E0.03827
G1 X124.230 Y109.429 E0.01688
G1 X123.371 Y108.570 E0.03827
G1 X122.835 Y108.570 E0.01688
G1 X123.695 Y109.429 E0.03827
G1 X123.159 Y109.429 E0.01688
G1 X122.300 Y108.570 E0.03827
G1 X121.764 Y108.570 E0.01688
G1 X122.623 Y109.429 E0.03827
G1 X122.087 Y109.429 E0.01688
G1 X121.228 Y108.570 E0.03827
G1 X120.692 Y108.570 E0.01688
G1 X121.551 Y109.429 E0.03827
G1 X121.015 Y109.429 E0.01688
G1 X120.156 Y108.570 E0.03827
G1 X119.621 Y108.570 E0.01688
G1 X120.480 Y109.429 E0.03827
G1 X119.944 Y109.429 E0.01688
G1 X119.085 Y108.570 E0.03827
G1 X118.549 Y108.570 E0.01688
G1 X119.408 Y109.429 E0.03827
M73 P3 R21
G1 X118.872 Y109.429 E0.01688
G1 X118.013 Y108.570 E0.03827
G1 X117.477 Y108.570 E0.01688
G1 X118.336 Y109.429 E0.03827
G1 X117.800 Y109.429 E0.01688
G1 X116.942 Y108.570 E0.03827
G1 X116.406 Y108.570 E0.01688
G1 X117.265 Y109.429 E0.03827
G1 X116.729 Y109.429 E0.01688
G1 X115.870 Y108.570 E0.03827
G1 X115.334 Y108.570 E0.01688
G1 X116.193 Y109.429 E0.03826
G1 X115.657 Y109.429 E0.01688
G1 X114.798 Y108.570 E0.03826
G1 X114.263 Y108.570 E0.01688
G1 X115.121 Y109.429 E0.03826
G1 X114.586 Y109.429 E0.01688
G1 X113.727 Y108.570 E0.03826
M73 Q4 S22
G1 X113.191 Y108.570 E0.01688
G1 X114.050 Y109.429 E0.03826
M73 P4 R21
G1 X113.514 Y109.429 E0.01688
G1 X112.655 Y108.570 E0.03826
G1 X112.119 Y108.570 E0.01688
G1 X112.978 Y109.429 E0.03826
G1 X112.442 Y109.429 E0.01688
G1 X111.414 Y108.400 E0.04582
;WIPE_START
G1 F8640.000
G1 X112.442 Y109.429 E-0.33584
G1 X112.978 Y109.429 E-0.12372
G1 X112.119 Y108.570 E-0.28043
G1 X112.206 Y108.570 E-0.02001
;WIPE_END
G1 E-0.04000 F2100.000
G1 Z0.600 F10800.000
G1 X110.915 Y100.936
G1 Z0.200
G1 E0.80000 F2100.000
G1 F1200.000
G1 X110.550 Y100.571 E0.01626
G1 X110.014 Y100.571 E0.01688
G1 X110.745 Y101.302 E0.03257
G1 X110.745 Y101.838 E0.01688
G1 X109.478 Y100.571 E0.05644
G1 X108.942 Y100.571 E0.01688
G1 X110.745 Y102.373 E0.08031
G1 X110.745 Y102.909 E0.01688
G1 X108.407 Y100.571 E0.10419
G1 X107.871 Y100.571 E0.01688
G1 X110.745 Y103.445 E0.12806
G1 X110.745 Y103.981 E0.01688
G1 X107.335 Y100.571 E0.15193
G1 X106.799 Y100.571 E0.01688
G1 X110.745 Y104.517 E0.17580
G1 X110.745 Y105.052 E0.01688
G1 X106.263 Y100.571 E0.19968
G1 X105.728 Y100.571 E0.01688
G1 X110.745 Y105.588 E0.22355
G1 X110.745 Y106.124 E0.01688
G1 X105.192 Y100.571 E0.24742
G1 X104.656 Y100.571 E0.01688
G1 X110.745 Y106.660 E0.27129
G1 X110.745 Y107.196 E0.01688
G1 X104.120 Y100.571 E0.29517
G1 X103.584 Y100.571 E0.01688
G1 X110.915 Y107.901 E0.32660
;WIPE_START
G1 F8640.000
G1 X108.587 Y105.574 E-0.76000
;WIPE_END
G1 E-0.04000 F2100.000
G1 Z0.600 F10800.000
G1 X112.076 Y109.598
G1 Z0.200
G1 E0.80000 F2100.000
G1 F1200.000
G1 X103.048 Y100.571 E0.40221
G1 X102.513 Y100.571 E0.01688
G1 X111.371 Y109.429 E0.39465
G1 X110.835 Y109.429 E0.01688
G1 X101.977 Y100.571 E0.39465
G1 X101.441 Y100.571 E0.01688
G1 X110.299 Y109.429 E0.39465
G1 X109.763 Y109.429 E0.01688
G1 X100.905 Y100.571 E0.39465
G1 X100.369 Y100.571 E0.01688
G1 X109.227 Y109.429 E0.39465
G1 X108.691 Y109.429 E0.01688
G1 X99.833 Y100.570 E0.39465
G1 X99.298 Y100.570 E0.01688
G1 X105.326 Y106.599 E0.26857
G1 X105.531 Y106.678 E0.00692
G1 X105.952 Y106.930 E0.01550
G1 X106.325 Y107.268 E0.01583
G1 X106.624 Y107.672 E0.01584
G1 X106.827 Y108.100 E0.01491
G1 X108.156 Y109.429 E0.05921
G1 X107.620 Y109.429 E0.01688
G1 X106.780 Y108.589 E0.03741
;WIPE_START
G1 F8640.000
G1 X107.620 Y109.429 E-0.27416
G1 X108.156 Y109.429 E-0.12372
G1 X107.047 Y108.320 E-0.36212
;WIPE_END
G1 E-0.04000 F2100.000
G1 Z0.600 F10800.000
G1 X104.834 Y106.643
G1 Z0.200
G1 E0.80000 F2100.000
G1 F1200.000
G1 X98.762 Y100.570 E0.27053
G1 X98.226 Y100.570 E0.01688
M73 Q4 S21
G1 X104.094 Y106.438 E0.26142
G1 X103.558 Y106.438 E0.01689
G1 X97.690 Y100.570 E0.26141
G1 X97.154 Y100.570 E0.01688
G1 X103.022 Y106.438 E0.26140
G1 X102.486 Y106.437 E0.01689
G1 X96.618 Y100.570 E0.26140
M73 P5 R21
M73 Q5 S21
G1 X96.083 Y100.570 E0.01688
G1 X101.950 Y106.437 E0.26139
G1 X101.414 Y106.437 E0.01689
G1 X95.547 Y100.570 E0.26138
G1 X95.011 Y100.570 E0.01688
G1 X100.878 Y106.437 E0.26137
G1 X100.342 Y106.437 E0.01689
G1 X94.475 Y100.570 E0.26137
G1 X93.939 Y100.570 E0.01688
G1 X99.806 Y106.437 E0.26136
G1 X99.270 Y106.436 E0.01689
G1 X93.404 Y100.570 E0.26135
G1 X92.868 Y100.570 E0.01688
