; generated by PrusaSlicer 2.3.1+win64 on 2022-03-11 at 12:56:33 UTC

; 

; external perimeters extrusion width = 0.45mm
; perimeters extrusion width = 0.45mm
; infill extrusion width = 0.45mm
; solid infill extrusion width = 0.45mm
; top infill extrusion width = 0.40mm
; first layer extrusion width = 0.42mm

M73 P0 R8
M73 Q0 S8
M201 X1000 Y1000 Z200 E5000 ; sets maximum accelerations, mm/sec^2
M203 X200 Y200 Z12 E120 ; sets maximum feedrates, mm/sec
M204 P1250 R1250 T1250 ; sets acceleration (P, T) and retract acceleration (R), mm/sec^2
M205 X8.00 Y8.00 Z0.40 E4.50 ; sets the jerk limits, mm/sec
M205 S0 T0 ; sets the minimum extruding and travel feed rate, mm/sec
M107
;TYPE:Custom
M862.3 P "MK3" ; printer model check
M862.1 P0.4 ; nozzle diameter check
M115 U3.9.3 ; tell printer latest fw version
G90 ; use absolute coordinates
M83 ; extruder relative mode
M104 S215 ; set extruder temp
M140 S60 ; set bed temp
M190 S60 ; wait for bed temp
M109 S215 ; wait for extruder temp
G28 W ; home all without mesh bed level
G80 ; mesh bed leveling
G1 Y-3.0 F1000.0 ; go outside print area
G92 E0.0
G1 X60.0 E9.0 F1000.0 ; intro line
G1 X100.0 E12.5 F1000.0 ; intro line
G92 E0.0
M221 S95

; Don't change E values below. Excessive value can damage the printer.
M907 E430 ; set extruder motor current
G21 ; set units to millimeters
G90 ; use absolute coordinates
M83 ; use relative distances for extrusion
M900 K0.05 ; Filament gcode LA 1.5
M900 K30 ; Filament gcode LA 1.0
;LAYER_CHANGE
;Z:0.2
;HEIGHT:0.2
;BEFORE_LAYER_CHANGE
G92 E0.0
;0.2


M73 P1 R8
M73 Q1 S8
G1 E-0.80000 F2100.000
G1 Z0.400 F10800.000
;AFTER_LAYER_CHANGE
;0.2
G1 X116.875 Y91.621
G1 Z0.200
G1 E0.80000 F2100.000
M204 S1000
;TYPE:Skirt
;WIDTH:0.42
G1 F1200.000
G1 X117.391 Y91.137 E0.02218
G1 X118.013 Y90.801 E0.02218
G1 X118.697 Y90.635 E0.02205
G1 X131.004 Y90.618 E0.38590
G1 X131.998 Y90.805 E0.03170
G1 X132.860 Y91.341 E0.03183
G1 X133.468 Y92.149 E0.03170
G1 X133.743 Y93.122 E0.03170
G1 X133.754 Y116.656 E0.73790
G1 X133.687 Y117.233 E0.01822
G1 X133.500 Y117.784 E0.01822
G1 X133.112 Y118.395 E0.02269
G1 X132.583 Y118.882 E0.02256
G1 X131.941 Y119.216 E0.02269
G1 X131.234 Y119.372 E0.02269
G1 X118.951 Y119.381 E0.38514
M73 P2 R8
M73 Q2 S8
G1 X118.386 Y119.312 E0.01784
G1 X117.844 Y119.127 E0.01796
G1 X117.214 Y118.724 E0.02345
G1 X116.716 Y118.166 E0.02345
G1 X116.386 Y117.495 E0.02345
G1 X116.249 Y116.764 E0.02333
G1 X116.246 Y93.344 E0.73431
G1 X116.313 Y92.767 E0.01822
G1 X116.500 Y92.216 E0.01822
G1 X116.843 Y91.672 E0.02017
G1 X117.160 Y91.874 F10800.000
G1 F1200.000
G1 X117.630 Y91.430 E0.02028
G1 X118.171 Y91.145 E0.01917
G1 X118.771 Y91.006 E0.01929
G1 X131.004 Y90.995 E0.38356
G1 X131.871 Y91.161 E0.02767
G1 X132.615 Y91.628 E0.02755
G1 X133.138 Y92.334 E0.02755
G1 X133.369 Y93.181 E0.02755
G1 X133.377 Y116.647 E0.73574
G1 X133.318 Y117.153 E0.01597
G1 X133.153 Y117.635 E0.01597
G1 X132.815 Y118.162 E0.01965
G1 X132.351 Y118.583 E0.01965
G1 X131.793 Y118.868 E0.01965
G1 X131.180 Y118.998 E0.01965
G1 X118.962 Y119.004 E0.38309
G1 X118.464 Y118.943 E0.01574
G1 X117.993 Y118.781 E0.01562
G1 X117.451 Y118.430 E0.02024
G1 X117.023 Y117.947 E0.02024
G1 X116.741 Y117.367 E0.02024
G1 X116.625 Y116.731 E0.02024
G1 X116.623 Y93.350 E0.73312
M73 P3 R8
M73 Q3 S8
G1 X116.682 Y92.847 E0.01585
G1 X116.847 Y92.365 E0.01597
G1 X117.128 Y91.924 E0.01639
; printing object breakoutboard-Holder_Top.stl id:0 copy 0
;WIPE_START
G1 F8640.000
G1 X117.630 Y91.430 E-0.16281
G1 X118.171 Y91.145 E-0.14121
G1 X118.771 Y91.006 E-0.14208
G1 X120.130 Y91.005 E-0.31390
;WIPE_END
G1 E-0.04000 F2100.000
G1 Z0.600 F10800.000
G1 X119.787 Y94.160
G1 Z0.200
G1 E0.80000 F2100.000
;TYPE:Perimeter
G1 F1200.000
G1 X130.213 Y94.160 E0.32689
G1 X130.213 Y115.840 E0.67979
G1 X119.787 Y115.840 E0.32689
G1 X119.787 Y94.220 E0.67791
G1 X119.410 Y93.782 F10800.000
;TYPE:External perimeter
G1 F1200.000
G1 X130.590 Y93.782 E0.35054
M73 P4 R8
M73 Q4 S8
G1 X130.590 Y116.218 E0.70344
G1 X119.410 Y116.218 E0.35054
G1 X119.410 Y93.842 E0.70156
G1 X119.783 Y93.927 F10800.000
;WIPE_START
G1 F8640.000
G1 X122.701 Y93.825 E-0.76000
;WIPE_END
G1 E-0.04000 F2100.000
G1 Z0.600 F10800.000
G1 X129.331 Y94.273
G1 Z0.200
G1 E0.80000 F2100.000
;TYPE:Solid infill
;WIDTH:0.423196
G1 F1200.000
G1 X129.930 Y94.872 E0.02680
G1 X129.930 Y95.410 E0.01700
G1 X128.963 Y94.442 E0.04326
G1 X128.425 Y94.442 E0.01700
G1 X129.930 Y95.948 E0.06731
G1 X129.930 Y96.485 E0.01700
G1 X127.887 Y94.442 E0.09136
G1 X127.349 Y94.442 E0.01700
G1 X129.930 Y97.023 E0.11541
G1 X129.930 Y97.561 E0.01700
G1 X126.811 Y94.442 E0.13946
G1 X126.274 Y94.442 E0.01700
G1 X129.930 Y98.099 E0.16351
M73 Q5 S8
G1 X129.930 Y98.637 E0.01700
G1 X125.736 Y94.442 E0.18756
M73 P5 R8
G1 X125.198 Y94.442 E0.01700
G1 X129.930 Y99.174 E0.21160
G1 X129.930 Y99.712 E0.01700
G1 X124.660 Y94.442 E0.23565
G1 X124.123 Y94.442 E0.01700
G1 X129.930 Y100.250 E0.25970
G1 X129.930 Y100.788 E0.01700
G1 X123.585 Y94.442 E0.28375
G1 X123.047 Y94.442 E0.01700
G1 X129.930 Y101.326 E0.30780
G1 X129.930 Y101.863 E0.01700
G1 X122.509 Y94.442 E0.33185
G1 X121.971 Y94.442 E0.01700
G1 X129.930 Y102.401 E0.35590
G1 X129.930 Y102.939 E0.01700
G1 X121.434 Y94.442 E0.37994
G1 X120.896 Y94.442 E0.01700
G1 X129.930 Y103.477 E0.40399
M73 Q6 S8
G1 X129.930 Y104.014 E0.01701
G1 X120.358 Y94.442 E0.42804
M73 P6 R8
G1 X120.070 Y94.442 E0.00911
G1 X120.070 Y94.692 E0.00789
G1 X129.930 Y104.552 E0.44093
G1 X129.930 Y105.090 E0.01701
G1 X120.070 Y95.230 E0.44093
G1 X120.070 Y95.768 E0.01701
G1 X129.930 Y105.628 E0.44093
G1 X129.930 Y106.166 E0.01701
G1 X120.070 Y96.305 E0.44093
G1 X120.070 Y96.843 E0.01701
G1 X129.930 Y106.703 E0.44093
G1 X129.930 Y107.241 E0.01701
G1 X120.070 Y97.381 E0.44093
M73 P7 R8
M73 Q7 S8
G1 X120.070 Y97.919 E0.01701
G1 X129.930 Y107.779 E0.44093
G1 X129.930 Y108.317 E0.01700
G1 X120.070 Y98.457 E0.44093
G1 X120.070 Y98.994 E0.01701
G1 X129.930 Y108.855 E0.44093
G1 X129.930 Y109.392 E0.01700
G1 X120.070 Y99.532 E0.44093
G1 X120.070 Y100.070 E0.01701
G1 X129.930 Y109.930 E0.44093
G1 X129.930 Y110.468 E0.01700
G1 X120.070 Y100.608 E0.44093
G1 X120.070 Y101.146 E0.01701
G1 X129.930 Y111.006 E0.44093
M73 P8 R8
M73 Q8 S8
G1 X129.930 Y111.544 E0.01700
G1 X120.070 Y101.683 E0.44093
G1 X120.070 Y102.221 E0.01700
G1 X129.930 Y112.081 E0.44093
G1 X129.930 Y112.619 E0.01700
G1 X120.070 Y102.759 E0.44093
G1 X120.070 Y103.297 E0.01700
G1 X129.930 Y113.157 E0.44093
G1 X129.930 Y113.695 E0.01700
G1 X120.070 Y103.834 E0.44093
G1 X120.070 Y104.372 E0.01700
G1 X129.930 Y114.233 E0.44093
G1 X129.930 Y114.770 E0.01700
G1 X120.070 Y104.910 E0.44093
M73 P9 R8
M73 Q9 S8
G1 X120.070 Y105.448 E0.01700
G1 X129.930 Y115.308 E0.44093
G1 X129.930 Y115.558 E0.00789
G1 X129.642 Y115.558 E0.00911
G1 X120.070 Y105.986 E0.42804
M73 P9 R7
G1 X120.070 Y106.523 E0.01700
G1 X129.104 Y115.558 E0.40399
M73 Q9 S7
G1 X128.566 Y115.558 E0.01700
G1 X120.070 Y107.061 E0.37994
G1 X120.070 Y107.599 E0.01700
G1 X128.029 Y115.558 E0.35589
G1 X127.491 Y115.558 E0.01700
G1 X120.070 Y108.137 E0.33184
G1 X120.070 Y108.675 E0.01700
G1 X126.953 Y115.558 E0.30779
M73 Q10 S7
G1 X126.415 Y115.558 E0.01700
G1 X120.070 Y109.212 E0.28375
M73 P10 R7
G1 X120.070 Y109.750 E0.01700
G1 X125.877 Y115.558 E0.25970
G1 X125.340 Y115.558 E0.01700
G1 X120.070 Y110.288 E0.23565
G1 X120.070 Y110.826 E0.01700
G1 X124.802 Y115.558 E0.21160
G1 X124.264 Y115.558 E0.01700
G1 X120.070 Y111.364 E0.18755
G1 X120.070 Y111.901 E0.01700
G1 X123.726 Y115.558 E0.16350
G1 X123.188 Y115.558 E0.01700
G1 X120.070 Y112.439 E0.13945
G1 X120.070 Y112.977 E0.01700
G1 X122.651 Y115.558 E0.11540
G1 X122.113 Y115.558 E0.01700
G1 X120.070 Y113.515 E0.09136
G1 X120.070 Y114.053 E0.01701
G1 X121.575 Y115.558 E0.06731
G1 X121.037 Y115.558 E0.01701
G1 X120.070 Y114.590 E0.04326
G1 X120.070 Y115.128 E0.01701
G1 X120.669 Y115.727 E0.02680
; stop printing object breakoutboard-Holder_Top.stl id:0 copy 0
M106 S84.15
;LAYER_CHANGE
;Z:0.4
;HEIGHT:0.2
;BEFORE_LAYER_CHANGE
G92 E0.0
;0.4


;WIPE_START
G1 F8640.000
G1 X120.070 Y115.128 E-0.19568
G1 X120.070 Y114.590 E-0.12418
G1 X121.037 Y115.558 E-0.31589
G1 X121.575 Y115.558 E-0.12418
G1 X121.575 Y115.557 E-0.00007
;WIPE_END
G1 E-0.04000 F2100.000
G1 Z0.600 F10800.000
;AFTER_LAYER_CHANGE
;0.4
G1 X132.860 Y91.341
G1 Z0.400
G1 E0.80000 F2100.000
;TYPE:Skirt
;WIDTH:0.42
G1 F3000.000
G1 X133.468 Y92.149 E0.03170
G1 X133.743 Y93.122 E0.03170
G1 X133.754 Y116.656 E0.73790
G1 X133.687 Y117.233 E0.01822
G1 X133.500 Y117.784 E0.01822
G1 X133.112 Y118.395 E0.02269
G1 X132.583 Y118.882 E0.02256
G1 X131.941 Y119.216 E0.02269
G1 X131.234 Y119.372 E0.02269
G1 X118.951 Y119.381 E0.38514
M73 Q11 S7
G1 X118.386 Y119.312 E0.01784
G1 X117.844 Y119.127 E0.01796
G1 X117.214 Y118.724 E0.02345
G1 X116.716 Y118.166 E0.02345
G1 X116.386 Y117.495 E0.02345
G1 X116.249 Y116.764 E0.02333
G1 X116.246 Y93.344 E0.73431
M73 P11 R7
G1 X116.313 Y92.767 E0.01822
G1 X116.500 Y92.216 E0.01822
G1 X116.875 Y91.621 E0.02205
G1 X117.391 Y91.137 E0.02218
G1 X118.013 Y90.801 E0.02218
G1 X118.697 Y90.635 E0.02205
G1 X131.004 Y90.618 E0.38590
G1 X131.998 Y90.805 E0.03170
G1 X132.809 Y91.309 E0.02995
G1 X132.610 Y91.625 F10800.000
G1 F3000.000
G1 X133.138 Y92.334 E0.02769
G1 X133.369 Y93.181 E0.02755
G1 X133.377 Y116.647 E0.73574
G1 X133.318 Y117.153 E0.01597
G1 X133.153 Y117.635 E0.01597
G1 X132.815 Y118.162 E0.01965
G1 X132.351 Y118.583 E0.01965
G1 X131.793 Y118.868 E0.01965
G1 X131.180 Y118.998 E0.01965
G1 X118.962 Y119.004 E0.38309
G1 X118.464 Y118.943 E0.01574
G1 X117.993 Y118.781 E0.01562
G1 X117.451 Y118.430 E0.02024
G1 X117.023 Y117.947 E0.02024
G1 X116.741 Y117.367 E0.02024
G1 X116.625 Y116.731 E0.02024
G1 X116.623 Y93.350 E0.73312
G1 X116.682 Y92.847 E0.01585
G1 X116.847 Y92.365 E0.01597
G1 X117.177 Y91.846 E0.01929
G1 X117.630 Y91.430 E0.01929
G1 X118.171 Y91.145 E0.01917
G1 X118.771 Y91.006 E0.01929
G1 X131.004 Y90.995 E0.38356
G1 X131.871 Y91.161 E0.02767
G1 X132.560 Y91.593 E0.02552
; printing object breakoutboard-Holder_Top.stl id:0 copy 0
;WIPE_START
G1 F8640.000
G1 X133.138 Y92.334 E-0.21689
G1 X133.369 Y93.181 E-0.20287
G1 X133.370 Y94.655 E-0.34024
;WIPE_END
G1 E-0.04000 F2100.000
G1 Z0.800 F10800.000
G1 X130.368 Y94.005
G1 Z0.400
G1 E0.80000 F2100.000
M204 S800
;TYPE:Perimeter
;WIDTH:0.45
G1 F2700.000
G1 X130.368 Y115.995 E0.74437
G1 X119.632 Y115.995 E0.36340
G1 X119.632 Y94.005 E0.74437
G1 X130.308 Y94.005 E0.36136
M204 S1000
G1 X130.775 Y93.597 F10800.000
M204 S800
;TYPE:External perimeter
G1 F1500.000
G1 X130.775 Y116.403 E0.77192
M73 P12 R7
M73 Q12 S7
G1 X119.225 Y116.403 E0.39095
G1 X119.225 Y93.597 E0.77192
G1 X130.715 Y93.597 E0.38892
M204 S1000
G1 X130.713 Y93.993 F10800.000
;WIPE_START
G1 F8640.000
G1 X130.724 Y96.889 E-0.76000
;WIPE_END
G1 E-0.04000 F2100.000
G1 Z0.800 F10800.000
G1 X129.421 Y115.873
G1 Z0.400
G1 E0.80000 F2100.000
;TYPE:Solid infill
;WIDTH:0.451017
G1 F4800.000
G1 X130.063 Y115.231 E0.03080
G1 X130.063 Y114.654 E0.01958
G1 X129.027 Y115.690 E0.04971
G1 X128.450 Y115.690 E0.01958
G1 X130.063 Y114.077 E0.07740
G1 X130.063 Y113.500 E0.01958
G1 X127.873 Y115.690 E0.10510
G1 X127.295 Y115.690 E0.01958
G1 X130.063 Y112.923 E0.13280
G1 X130.063 Y112.346 E0.01958
G1 X126.718 Y115.690 E0.16049
G1 X126.141 Y115.690 E0.01958
G1 X130.063 Y111.769 E0.18819
G1 X130.063 Y111.192 E0.01958
G1 X125.564 Y115.690 E0.21589
G1 X124.987 Y115.690 E0.01958
G1 X130.063 Y110.614 E0.24358
G1 X130.063 Y110.037 E0.01958
G1 X124.410 Y115.690 E0.27128
G1 X123.833 Y115.690 E0.01958
G1 X130.063 Y109.460 E0.29897
G1 X130.063 Y108.883 E0.01958
M73 Q13 S7
G1 X123.255 Y115.690 E0.32667
G1 X122.678 Y115.690 E0.01958
G1 X130.063 Y108.306 E0.35437
M73 P13 R7
G1 X130.063 Y107.729 E0.01958
G1 X122.101 Y115.690 E0.38206
G1 X121.524 Y115.690 E0.01958
G1 X130.063 Y107.152 E0.40976
G1 X130.063 Y106.574 E0.01958
G1 X120.947 Y115.690 E0.43746
G1 X120.370 Y115.690 E0.01958
G1 X130.063 Y105.997 E0.46515
G1 X130.063 Y105.420 E0.01958
G1 X119.937 Y115.545 E0.48590
G1 X119.937 Y114.968 E0.01958
G1 X130.063 Y104.843 E0.48590
G1 X130.063 Y104.266 E0.01958
G1 X119.937 Y114.391 E0.48590
G1 X119.937 Y113.814 E0.01958
G1 X130.063 Y103.689 E0.48590
G1 X130.063 Y103.112 E0.01958
G1 X119.937 Y113.237 E0.48590
G1 X119.937 Y112.660 E0.01958
G1 X130.063 Y102.534 E0.48590
G1 X130.063 Y101.957 E0.01958
G1 X119.937 Y112.083 E0.48590
G1 X119.937 Y111.505 E0.01958
G1 X130.063 Y101.380 E0.48590
G1 X130.063 Y100.803 E0.01958
G1 X119.937 Y110.928 E0.48590
G1 X119.937 Y110.351 E0.01958
G1 X130.063 Y100.226 E0.48590
G1 X130.063 Y99.649 E0.01958
G1 X119.937 Y109.774 E0.48590
G1 X119.937 Y109.197 E0.01958
G1 X130.063 Y99.072 E0.48590
G1 X130.063 Y98.495 E0.01958
G1 X119.937 Y108.620 E0.48590
M73 Q14 S7
G1 X119.937 Y108.043 E0.01958
G1 X130.063 Y97.917 E0.48590
M73 P14 R7
G1 X130.063 Y97.340 E0.01958
G1 X119.937 Y107.465 E0.48590
G1 X119.937 Y106.888 E0.01958
G1 X130.063 Y96.763 E0.48590
G1 X130.063 Y96.186 E0.01958
G1 X119.937 Y106.311 E0.48590
G1 X119.937 Y105.734 E0.01958
G1 X130.063 Y95.609 E0.48590
G1 X130.063 Y95.032 E0.01958
G1 X119.937 Y105.157 E0.48590
G1 X119.937 Y104.580 E0.01958
G1 X130.063 Y94.455 E0.48590
G1 X130.063 Y94.310 E0.00491
G1 X129.630 Y94.310 E0.01467
G1 X119.937 Y104.003 E0.46515
G1 X119.937 Y103.426 E0.01958
G1 X129.053 Y94.310 E0.43745
G1 X128.476 Y94.310 E0.01958
G1 X119.937 Y102.848 E0.40976
G1 X119.937 Y102.271 E0.01958
G1 X127.899 Y94.310 E0.38206
G1 X127.322 Y94.310 E0.01958
G1 X119.937 Y101.694 E0.35436
G1 X119.937 Y101.117 E0.01958
G1 X126.745 Y94.310 E0.32667
G1 X126.167 Y94.310 E0.01958
G1 X119.937 Y100.540 E0.29897
G1 X119.937 Y99.963 E0.01958
G1 X125.590 Y94.310 E0.27127
G1 X125.013 Y94.310 E0.01958
G1 X119.937 Y99.386 E0.24358
G1 X119.937 Y98.808 E0.01958
G1 X124.436 Y94.310 E0.21588
G1 X123.859 Y94.310 E0.01958
G1 X119.937 Y98.231 E0.18819
G1 X119.937 Y97.654 E0.01958
G1 X123.282 Y94.310 E0.16049
G1 X122.705 Y94.310 E0.01958
G1 X119.937 Y97.077 E0.13279
G1 X119.937 Y96.500 E0.01958
G1 X122.127 Y94.310 E0.10510
G1 X121.550 Y94.310 E0.01958
G1 X119.937 Y95.923 E0.07740
G1 X119.937 Y95.346 E0.01958
G1 X120.973 Y94.310 E0.04970
G1 X120.396 Y94.310 E0.01958
G1 X119.754 Y94.952 E0.03080
; stop printing object breakoutboard-Holder_Top.stl id:0 copy 0
M106 S170.85
;LAYER_CHANGE
;Z:0.6
;HEIGHT:0.2
;BEFORE_LAYER_CHANGE
G92 E0.0
;0.6


;WIPE_START
M73 Q15 S7
G1 F8640.000
G1 X120.396 Y94.310 E-0.20958
G1 X120.973 Y94.310 E-0.13326
G1 X119.937 Y95.346 E-0.33822
G1 X119.937 Y95.687 E-0.07894
;WIPE_END
G1 E-0.04000 F2100.000
G1 Z0.800 F10800.000
;AFTER_LAYER_CHANGE
;0.6
M73 P15 R7
G1 X132.860 Y91.341
G1 Z0.600
G1 E0.80000 F2100.000
;TYPE:Skirt
;WIDTH:0.42
G1 F3000.000
G1 X133.468 Y92.149 E0.03170
G1 X133.743 Y93.122 E0.03170
G1 X133.754 Y116.656 E0.73790
G1 X133.687 Y117.233 E0.01822
G1 X133.500 Y117.784 E0.01822
G1 X133.112 Y118.395 E0.02269
G1 X132.583 Y118.882 E0.02256
G1 X131.941 Y119.216 E0.02269
G1 X131.234 Y119.372 E0.02269
G1 X118.951 Y119.381 E0.38514
G1 X118.386 Y119.312 E0.01784
G1 X117.844 Y119.127 E0.01796
G1 X117.214 Y118.724 E0.02345
G1 X116.716 Y118.166 E0.02345
G1 X116.386 Y117.495 E0.02345
G1 X116.249 Y116.764 E0.02333
G1 X116.246 Y93.344 E0.73431
G1 X116.313 Y92.767 E0.01822
G1 X116.500 Y92.216 E0.01822
G1 X116.875 Y91.621 E0.02205
G1 X117.391 Y91.137 E0.02218
G1 X118.013 Y90.801 E0.02218
G1 X118.697 Y90.635 E0.02205
G1 X131.004 Y90.618 E0.38590
G1 X131.998 Y90.805 E0.03170
G1 X132.809 Y91.309 E0.02995
G1 X132.610 Y91.625 F10800.000
G1 F3000.000
G1 X133.138 Y92.334 E0.02769
G1 X133.369 Y93.181 E0.02755
G1 X133.377 Y116.647 E0.73574
G1 X133.318 Y117.153 E0.01597
G1 X133.153 Y117.635 E0.01597
G1 X132.815 Y118.162 E0.01965
G1 X132.351 Y118.583 E0.01965
G1 X131.793 Y118.868 E0.01965
G1 X131.180 Y118.998 E0.01965
G1 X118.962 Y119.004 E0.38309
G1 X118.464 Y118.943 E0.01574
G1 X117.993 Y118.781 E0.01562
G1 X117.451 Y118.430 E0.02024
G1 X117.023 Y117.947 E0.02024
G1 X116.741 Y117.367 E0.02024
G1 X116.625 Y116.731 E0.02024
G1 X116.623 Y93.350 E0.73312
G1 X116.682 Y92.847 E0.01585
G1 X116.847 Y92.365 E0.01597
G1 X117.177 Y91.846 E0.01929
