; generated by PrusaSlicer 2.3.1+win64 on 2022-05-10 at 11:55:57 UTC

; 

; external perimeters extrusion width = 0.45mm
; perimeters extrusion width = 0.45mm
; infill extrusion width = 0.45mm
; solid infill extrusion width = 0.45mm
; top infill extrusion width = 0.40mm
; first layer extrusion width = 0.42mm

M73 P0 R100
M73 Q0 S100
M201 X1000 Y1000 Z200 E5000 ; sets maximum accelerations, mm/sec^2
M203 X200 Y200 Z12 E120 ; sets maximum feedrates, mm/sec
M204 P1250 R1250 T1250 ; sets acceleration (P, T) and retract acceleration (R), mm/sec^2
M205 X8.00 Y8.00 Z0.40 E4.50 ; sets the jerk limits, mm/sec
M205 S0 T0 ; sets the minimum extruding and travel feed rate, mm/sec
M107
;TYPE:Custom
M862.3 P "MK3" ; printer model check
M862.1 P0.4 ; nozzle diameter check
M115 U3.9.3 ; tell printer latest fw version
G90 ; use absolute coordinates
M83 ; extruder relative mode
M104 S215 ; set extruder temp
M140 S60 ; set bed temp
M190 S60 ; wait for bed temp
M109 S215 ; wait for extruder temp
G28 W ; home all without mesh bed level
G80 ; mesh bed leveling
G1 Y-3.0 F1000.0 ; go outside print area
G92 E0.0
G1 X60.0 E9.0 F1000.0 ; intro line
G1 X100.0 E12.5 F1000.0 ; intro line
G92 E0.0
M221 S95

; Don't change E values below. Excessive value can damage the printer.
M907 E430 ; set extruder motor current
G21 ; set units to millimeters
G90 ; use absolute coordinates
M83 ; use relative distances for extrusion
M900 K0.05 ; Filament gcode LA 1.5
M900 K30 ; Filament gcode LA 1.0
;LAYER_CHANGE
;Z:0.2
;HEIGHT:0.2
;BEFORE_LAYER_CHANGE
G92 E0.0
;0.2


G1 E-0.80000 F2100.000
G1 Z0.400 F10800.000
;AFTER_LAYER_CHANGE
;0.2
G1 X69.730 Y53.934
G1 Z0.200
G1 E0.80000 F2100.000
M204 S1000
;TYPE:Skirt
;WIDTH:0.42
G1 F1200.000
G1 X70.038 Y52.928 E0.03301
G1 X70.374 Y52.259 E0.02346
G1 X70.797 Y51.646 E0.02333
G1 X71.293 Y51.105 E0.02305
G1 X71.868 Y50.629 E0.02337
G1 X72.501 Y50.239 E0.02331
G1 X73.183 Y49.939 E0.02336
G1 X73.890 Y49.739 E0.02306
G1 X74.631 Y49.636 E0.02346
G1 X119.005 Y49.623 E1.39131
G1 X120.234 Y49.766 E0.03880
G1 X121.409 Y50.193 E0.03919
G1 X177.440 Y78.208 E1.96416
G1 X178.444 Y78.871 E0.03774
G1 X179.269 Y79.730 E0.03735
G1 X179.731 Y80.444 E0.02666
G1 X180.079 Y81.234 E0.02707
G1 X180.295 Y82.067 E0.02697
G1 X180.377 Y82.929 E0.02714
G1 X180.377 Y127.046 E1.38327
M73 P0 R99
G1 X180.268 Y128.077 E0.03250
G1 X179.959 Y129.078 E0.03285
G1 X179.525 Y129.904 E0.02927
G1 X178.963 Y130.635 E0.02890
G1 X178.275 Y131.265 E0.02926
G1 X177.488 Y131.767 E0.02926
G1 X121.398 Y159.813 E1.96625
G1 X120.488 Y160.167 E0.03063
G1 X119.770 Y160.322 E0.02304
G1 X119.026 Y160.377 E0.02338
G1 X74.975 Y160.377 E1.38119
G1 X73.927 Y160.269 E0.03304
G1 X72.922 Y159.959 E0.03296
G1 X72.232 Y159.610 E0.02426
G1 X71.603 Y159.168 E0.02411
G1 X71.040 Y158.637 E0.02426
G1 X70.566 Y158.041 E0.02386
G1 X70.176 Y157.376 E0.02416
G1 X69.885 Y156.660 E0.02425
G1 X69.701 Y155.912 E0.02415
G1 X69.625 Y155.142 E0.02425
G1 X69.623 Y54.978 E3.14057
G1 X69.724 Y53.994 E0.03103
; printing object GlasPlates-Glasklever_1.4.stl id:0 copy 2
;WIPE_START
G1 F8640.000
G1 X70.038 Y52.928 E-0.25670
G1 X70.374 Y52.259 E-0.17276
G1 X70.797 Y51.646 E-0.17183
G1 X71.261 Y51.140 E-0.15870
;WIPE_END
G1 E-0.04000 F2100.000
G1 Z0.600 F10800.000
G1 X147.905 Y100.814
G1 Z0.200
G1 E0.80000 F2100.000
;TYPE:Perimeter
G1 F1200.000
G1 X148.287 Y100.355 E0.01872
G1 X148.746 Y99.954 E0.01909
G1 X149.265 Y99.632 E0.01914
G1 X149.813 Y99.402 E0.01866
G1 X150.392 Y99.260 E0.01866
G1 X150.976 Y99.213 E0.01837
G1 X155.079 Y99.213 E0.12864
G1 X155.509 Y99.246 E0.01353
G1 X155.900 Y99.321 E0.01247
G1 X156.265 Y99.430 E0.01195
G1 X156.630 Y99.581 E0.01239
G1 X156.966 Y99.762 E0.01196
G1 X157.293 Y99.985 E0.01240
G1 X157.595 Y100.241 E0.01241
G1 X157.859 Y100.515 E0.01195
G1 X158.103 Y100.827 E0.01241
G1 X158.314 Y101.164 E0.01246
G1 X158.500 Y101.550 E0.01343
G1 X158.641 Y101.954 E0.01342
G1 X158.731 Y102.343 E0.01252
G1 X158.781 Y102.770 E0.01345
G1 X158.787 Y107.036 E0.13377
G1 X158.747 Y107.555 E0.01633
G1 X158.659 Y107.981 E0.01363
G1 X158.518 Y108.404 E0.01398
G1 X158.330 Y108.806 E0.01394
G1 X158.112 Y109.160 E0.01301
G1 X157.848 Y109.498 E0.01345
G1 X157.546 Y109.805 E0.01351
G1 X157.200 Y110.084 E0.01392
G1 X156.837 Y110.313 E0.01348
G1 X156.450 Y110.500 E0.01347
G1 X156.046 Y110.641 E0.01342
G1 X155.657 Y110.730 E0.01249
G1 X155.230 Y110.781 E0.01348
G1 X150.964 Y110.787 E0.13377
G1 X150.444 Y110.747 E0.01634
G1 X150.019 Y110.659 E0.01362
G1 X149.596 Y110.518 E0.01398
G1 X149.194 Y110.330 E0.01394
G1 X148.840 Y110.112 E0.01301
G1 X148.501 Y109.847 E0.01349
G1 X148.186 Y109.536 E0.01390
G1 X147.916 Y109.200 E0.01351
G1 X147.686 Y108.835 E0.01353
G1 X147.488 Y108.419 E0.01442
G1 X147.350 Y108.012 E0.01350
G1 X147.256 Y107.577 E0.01392
G1 X147.216 Y107.168 E0.01291
G1 X147.214 Y102.888 E0.13419
G1 X147.266 Y102.360 E0.01664
G1 X147.387 Y101.859 E0.01616
G1 X147.596 Y101.336 E0.01764
G1 X147.875 Y100.865 E0.01716
G1 X148.199 Y101.057 F10800.000
;TYPE:External perimeter
G1 F1200.000
G1 X148.558 Y100.619 E0.01776
G1 X148.971 Y100.258 E0.01719
G1 X149.438 Y99.968 E0.01724
G1 X149.932 Y99.761 E0.01679
G1 X150.452 Y99.634 E0.01679
G1 X150.991 Y99.590 E0.01695
G1 X155.064 Y99.590 E0.12771
G1 X155.459 Y99.621 E0.01242
G1 X155.810 Y99.687 E0.01121
G1 X156.139 Y99.785 E0.01074
G1 X156.468 Y99.922 E0.01118
G1 X156.770 Y100.085 E0.01075
G1 X157.064 Y100.285 E0.01118
G1 X157.337 Y100.516 E0.01119
G1 X157.574 Y100.763 E0.01074
G1 X157.794 Y101.044 E0.01118
G1 X157.983 Y101.347 E0.01120
G1 X158.151 Y101.695 E0.01212
G1 X158.278 Y102.059 E0.01210
G1 X158.359 Y102.408 E0.01123
G1 X158.404 Y102.792 E0.01212
G1 X158.410 Y107.022 E0.13262
G1 X158.373 Y107.502 E0.01511
G1 X158.294 Y107.883 E0.01218
G1 X158.167 Y108.264 E0.01260
G1 X157.997 Y108.627 E0.01257
G1 X157.802 Y108.944 E0.01168
G1 X157.564 Y109.249 E0.01212
G1 X157.292 Y109.525 E0.01215
G1 X156.981 Y109.776 E0.01255
G1 X156.654 Y109.983 E0.01212
G1 X156.305 Y110.151 E0.01213
G1 X155.941 Y110.278 E0.01210
G1 X155.593 Y110.358 E0.01120
G1 X155.208 Y110.404 E0.01214
G1 X150.978 Y110.410 E0.13262
G1 X150.497 Y110.373 E0.01512
G1 X150.117 Y110.294 E0.01217
G1 X149.736 Y110.167 E0.01260
G1 X149.373 Y109.997 E0.01257
G1 X149.056 Y109.802 E0.01168
G1 X148.751 Y109.563 E0.01215
G1 X148.466 Y109.283 E0.01253
G1 X148.224 Y108.980 E0.01216
G1 X148.017 Y108.652 E0.01216
G1 X147.838 Y108.277 E0.01303
G1 X147.714 Y107.911 E0.01212
G1 X147.629 Y107.519 E0.01257
G1 X147.593 Y107.149 E0.01167
G1 X147.591 Y102.906 E0.13303
G1 X147.639 Y102.423 E0.01523
G1 X147.748 Y101.974 E0.01450
G1 X147.935 Y101.503 E0.01588
G1 X148.169 Y101.109 E0.01436
G1 X148.030 Y100.695 F10800.000
;WIPE_START
G1 F8640.000
G1 X148.558 Y100.619 E-0.14448
G1 X148.971 Y100.258 E-0.12662
G1 X149.438 Y99.968 E-0.12699
G1 X149.932 Y99.761 E-0.12364
G1 X150.452 Y99.634 E-0.12363
G1 X150.947 Y99.594 E-0.11463
;WIPE_END
G1 E-0.04000 F2100.000
G1 Z0.600 F10800.000
G1 X128.789 Y101.108
G1 Z0.200
G1 E0.80000 F2100.000
;TYPE:Perimeter
G1 F1200.000
G1 X128.790 Y82.895 E0.57105
G1 X128.861 Y82.438 E0.01449
G1 X128.931 Y82.218 E0.00723
G1 X129.137 Y81.807 E0.01442
G1 X129.285 Y81.603 E0.00792
G1 X129.603 Y81.284 E0.01411
G1 X129.981 Y81.037 E0.01415
G1 X130.202 Y80.937 E0.00760
G1 X130.398 Y80.872 E0.00649
G1 X130.824 Y80.796 E0.01358
G1 X131.498 Y80.787 E0.02113
G1 X175.051 Y80.788 E1.36558
G1 X175.496 Y80.844 E0.01404
G1 X175.729 Y80.911 E0.00762
G1 X176.111 Y81.087 E0.01316
G1 X176.477 Y81.353 E0.01422
G1 X176.628 Y81.502 E0.00662
G1 X176.876 Y81.829 E0.01288
G1 X177.057 Y82.191 E0.01268
G1 X177.172 Y82.591 E0.01305
G1 X177.213 Y82.993 E0.01267
G1 X177.213 Y126.985 E1.37936
G1 X177.168 Y127.441 E0.01435
G1 X177.110 Y127.666 E0.00729
G1 X176.935 Y128.071 E0.01383
G1 X176.670 Y128.451 E0.01454
G1 X176.525 Y128.602 E0.00655
G1 X176.187 Y128.865 E0.01343
G1 X175.827 Y129.051 E0.01271
G1 X175.627 Y129.122 E0.00664
G1 X175.445 Y129.167 E0.00589
G1 X175.006 Y129.213 E0.01383
G1 X131.015 Y129.213 E1.37932
G1 X130.559 Y129.168 E0.01435
G1 X130.334 Y129.110 E0.00729
G1 X129.928 Y128.935 E0.01387
G1 X129.548 Y128.669 E0.01453
G1 X129.389 Y128.516 E0.00692
G1 X129.136 Y128.191 E0.01289
G1 X128.945 Y127.818 E0.01315
G1 X128.876 Y127.618 E0.00664
G1 X128.831 Y127.435 E0.00591
G1 X128.787 Y127.006 E0.01350
G1 X128.789 Y101.168 E0.81015
G1 X128.412 Y101.168 F10800.000
;TYPE:External perimeter
G1 F1200.000
G1 X128.413 Y82.876 E0.57351
G1 X128.439 Y82.619 E0.00811
G1 X128.495 Y82.342 E0.00884
G1 X128.577 Y82.085 E0.00847
G1 X128.686 Y81.837 E0.00848
G1 X128.820 Y81.603 E0.00845
G1 X128.992 Y81.365 E0.00921
G1 X129.173 Y81.165 E0.00847
G1 X129.365 Y80.992 E0.00811
G1 X129.574 Y80.838 E0.00812
G1 X129.807 Y80.701 E0.00848
G1 X130.064 Y80.585 E0.00885
G1 X130.305 Y80.505 E0.00796
G1 X130.789 Y80.419 E0.01540
G1 X131.496 Y80.410 E0.02217
G1 X175.065 Y80.411 E1.36609
G1 X175.314 Y80.429 E0.00783
G1 X175.581 Y80.476 E0.00848
G1 X175.852 Y80.555 E0.00886
G1 X176.301 Y80.761 E0.01549
G1 X176.528 Y80.909 E0.00850
G1 X176.729 Y81.072 E0.00812
G1 X176.905 Y81.246 E0.00776
G1 X177.202 Y81.637 E0.01539
G1 X177.410 Y82.053 E0.01458
G1 X177.544 Y82.519 E0.01520
G1 X177.590 Y82.974 E0.01434
G1 X177.590 Y126.995 E1.38023
G1 X177.578 Y127.248 E0.00795
G1 X177.538 Y127.516 E0.00851
G1 X177.470 Y127.779 E0.00851
G1 X177.379 Y128.022 E0.00813
G1 X177.265 Y128.255 E0.00813
G1 X177.115 Y128.495 E0.00887
G1 X176.954 Y128.699 E0.00814
G1 X176.778 Y128.883 E0.00800
G1 X176.391 Y129.184 E0.01537
G1 X175.977 Y129.398 E0.01462
G1 X175.735 Y129.483 E0.00803
G1 X175.510 Y129.539 E0.00727
G1 X175.026 Y129.590 E0.01527
G1 X131.005 Y129.590 E1.38022
G1 X130.752 Y129.578 E0.00795
G1 X130.484 Y129.538 E0.00851
G1 X130.221 Y129.470 E0.00851
G1 X129.978 Y129.379 E0.00813
G1 X129.744 Y129.265 E0.00815
G1 X129.524 Y129.128 E0.00814
G1 X129.301 Y128.954 E0.00887
G1 X129.114 Y128.774 E0.00814
G1 X128.812 Y128.386 E0.01542
G1 X128.597 Y127.966 E0.01478
G1 X128.514 Y127.724 E0.00803
G1 X128.459 Y127.499 E0.00728
G1 X128.410 Y127.026 E0.01491
G1 X128.412 Y101.228 E0.80888
G1 X128.758 Y100.968 F10800.000
;WIPE_START
G1 F8640.000
G1 X128.412 Y97.936 E-0.76000
;WIPE_END
G1 E-0.04000 F2100.000
G1 Z0.600 F10800.000
G1 X175.099 Y80.908
G1 Z0.200
G1 E0.80000 F2100.000
;TYPE:Solid infill
;WIDTH:0.420496
G1 F1200.000
G1 X176.900 Y82.709 E0.07996
G1 X176.930 Y83.007 E0.00941
G1 X176.930 Y83.273 E0.00834
G1 X174.728 Y81.071 E0.09776
G1 X174.194 Y81.071 E0.01676
G1 X176.930 Y83.807 E0.12147
G1 X176.930 Y84.341 E0.01676
G1 X173.660 Y81.071 E0.14517
G1 X173.126 Y81.071 E0.01676
G1 X176.930 Y84.875 E0.16888
G1 X176.930 Y85.409 E0.01676
G1 X172.592 Y81.071 E0.19258
G1 X172.059 Y81.071 E0.01676
G1 X176.930 Y85.943 E0.21629
G1 X176.930 Y86.477 E0.01676
G1 X171.525 Y81.071 E0.23999
M73 Q0 S99
G1 X170.991 Y81.072 E0.01676
G1 X176.930 Y87.011 E0.26369
G1 X176.930 Y87.545 E0.01676
G1 X170.457 Y81.072 E0.28740
G1 X169.923 Y81.072 E0.01676
G1 X176.930 Y88.079 E0.31110
G1 X176.930 Y88.613 E0.01676
G1 X169.389 Y81.072 E0.33481
G1 X168.855 Y81.072 E0.01676
G1 X176.930 Y89.147 E0.35851
G1 X176.930 Y89.681 E0.01676
G1 X168.321 Y81.072 E0.38222
G1 X167.788 Y81.072 E0.01676
G1 X176.930 Y90.214 E0.40592
G1 X176.930 Y90.748 E0.01676
G1 X167.254 Y81.072 E0.42962
G1 X166.720 Y81.072 E0.01676
G1 X176.930 Y91.282 E0.45333
G1 X176.930 Y91.816 E0.01676
G1 X166.186 Y81.072 E0.47703
M73 P1 R99
M73 Q1 S99
G1 X165.652 Y81.073 E0.01676
G1 X176.930 Y92.350 E0.50074
G1 X176.930 Y92.884 E0.01676
G1 X165.118 Y81.073 E0.52444
G1 X164.584 Y81.073 E0.01676
G1 X176.930 Y93.418 E0.54815
G1 X176.930 Y93.952 E0.01676
G1 X164.050 Y81.073 E0.57185
G1 X163.517 Y81.073 E0.01676
G1 X176.930 Y94.486 E0.59555
G1 X176.930 Y95.020 E0.01676
G1 X162.983 Y81.073 E0.61926
G1 X162.449 Y81.073 E0.01676
G1 X176.930 Y95.554 E0.64296
G1 X176.930 Y96.088 E0.01676
G1 X161.915 Y81.073 E0.66667
G1 X161.381 Y81.073 E0.01676
G1 X176.930 Y96.622 E0.69037
G1 X176.930 Y97.156 E0.01676
G1 X160.847 Y81.073 E0.71408
G1 X160.313 Y81.073 E0.01676
G1 X176.930 Y97.690 E0.73778
G1 X176.930 Y98.224 E0.01676
G1 X159.779 Y81.074 E0.76149
G1 X159.246 Y81.074 E0.01676
G1 X176.930 Y98.758 E0.78519
G1 X176.930 Y99.292 E0.01676
G1 X158.712 Y81.074 E0.80889
M73 P1 R98
G1 X158.178 Y81.074 E0.01676
G1 X176.930 Y99.826 E0.83260
G1 X176.930 Y100.360 E0.01676
G1 X157.644 Y81.074 E0.85630
G1 X157.110 Y81.074 E0.01676
G1 X176.930 Y100.894 E0.88001
G1 X176.930 Y101.428 E0.01676
G1 X156.576 Y81.074 E0.90371
G1 X156.042 Y81.074 E0.01676
G1 X176.930 Y101.962 E0.92742
G1 X176.930 Y102.496 E0.01676
G1 X155.508 Y81.074 E0.95112
G1 X154.975 Y81.074 E0.01676
G1 X176.930 Y103.030 E0.97482
G1 X176.930 Y103.564 E0.01676
G1 X154.441 Y81.075 E0.99853
G1 X153.907 Y81.075 E0.01676
G1 X176.930 Y104.098 E1.02223
G1 X176.930 Y104.632 E0.01676
G1 X153.373 Y81.075 E1.04594
G1 X152.839 Y81.075 E0.01676
G1 X176.930 Y105.166 E1.06964
G1 X176.930 Y105.700 E0.01676
G1 X152.305 Y81.075 E1.09335
G1 X151.771 Y81.075 E0.01676
G1 X176.930 Y106.234 E1.11705
G1 X176.930 Y106.768 E0.01676
G1 X151.237 Y81.075 E1.14075
G1 X150.704 Y81.075 E0.01676
G1 X176.930 Y107.302 E1.16446
G1 X176.930 Y107.836 E0.01676
G1 X150.170 Y81.075 E1.18816
G1 X149.636 Y81.075 E0.01676
G1 X176.930 Y108.370 E1.21187
G1 X176.930 Y108.904 E0.01676
G1 X149.102 Y81.075 E1.23557
G1 X148.568 Y81.076 E0.01676
G1 X176.930 Y109.438 E1.25928
G1 X176.930 Y109.972 E0.01676
G1 X148.034 Y81.076 E1.28298
G1 X147.500 Y81.076 E0.01676
G1 X176.930 Y110.506 E1.30668
G1 X176.930 Y111.040 E0.01676
G1 X146.966 Y81.076 E1.33039
M73 Q1 S98
G1 X146.432 Y81.076 E0.01676
G1 X176.930 Y111.574 E1.35409
G1 X176.930 Y112.107 E0.01676
G1 X145.899 Y81.076 E1.37780
G1 X145.365 Y81.076 E0.01676
G1 X176.930 Y112.641 E1.40150
M73 P2 R98
M73 Q2 S98
G1 X176.930 Y113.175 E0.01676
G1 X144.831 Y81.076 E1.42521
G1 X144.297 Y81.076 E0.01676
G1 X176.930 Y113.709 E1.44891
G1 X176.930 Y114.243 E0.01676
G1 X143.763 Y81.076 E1.47261
G1 X143.229 Y81.077 E0.01676
G1 X176.930 Y114.777 E1.49632
G1 X176.930 Y115.311 E0.01676
G1 X142.695 Y81.077 E1.52002
G1 X142.161 Y81.077 E0.01676
G1 X176.930 Y115.845 E1.54373
M73 P2 R97
G1 X176.930 Y116.379 E0.01676
G1 X141.628 Y81.077 E1.56743
G1 X141.094 Y81.077 E0.01676
G1 X176.930 Y116.913 E1.59114
G1 X176.930 Y117.447 E0.01676
G1 X140.560 Y81.077 E1.61484
G1 X140.026 Y81.077 E0.01676
G1 X176.930 Y117.981 E1.63854
G1 X176.930 Y118.515 E0.01676
G1 X139.492 Y81.077 E1.66225
G1 X138.958 Y81.077 E0.01676
G1 X176.930 Y119.049 E1.68595
G1 X176.930 Y119.583 E0.01676
G1 X158.736 Y101.389 E0.80783
G1 X158.562 Y101.028 E0.01259
G1 X158.335 Y100.665 E0.01343
G1 X158.073 Y100.330 E0.01335
G1 X157.789 Y100.034 E0.01288
G1 X157.464 Y99.759 E0.01335
G1 X157.113 Y99.520 E0.01334
G1 X156.616 Y99.269 E0.01749
G1 X138.424 Y81.077 E0.80770
G1 X137.890 Y81.077 E0.01676
G1 X155.833 Y99.020 E0.79665
G1 X155.546 Y98.966 E0.00916
G1 X155.220 Y98.941 E0.01029
G1 X137.357 Y81.078 E0.79312
G1 X136.823 Y81.078 E0.01676
G1 X154.676 Y98.931 E0.79267
G1 X154.142 Y98.931 E0.01677
G1 X136.289 Y81.078 E0.79266
G1 X135.755 Y81.078 E0.01676
G1 X153.607 Y98.930 E0.79265
G1 X153.073 Y98.930 E0.01677
G1 X135.221 Y81.078 E0.79265
G1 X134.687 Y81.078 E0.01676
G1 X152.539 Y98.930 E0.79264
G1 X152.005 Y98.930 E0.01677
G1 X134.153 Y81.078 E0.79263
G1 X133.619 Y81.078 E0.01676
G1 X151.471 Y98.930 E0.79263
G1 X150.939 Y98.932 E0.01670
G1 X133.086 Y81.078 E0.79271
G1 X132.552 Y81.078 E0.01676
G1 X150.445 Y98.972 E0.79448
G1 X150.003 Y99.064 E0.01417
G1 X132.018 Y81.079 E0.79856
G1 X131.484 Y81.079 E0.01676
G1 X149.593 Y99.188 E0.80404
G1 X149.217 Y99.345 E0.01281
G1 X130.950 Y81.079 E0.81104
G1 X130.850 Y81.079 E0.00316
G1 X130.482 Y81.144 E0.01173
G1 X148.877 Y99.540 E0.81676
G1 X148.552 Y99.748 E0.01213
G1 X130.099 Y81.295 E0.81932
M73 Q2 S97
G1 X129.943 Y81.387 E0.00566
G1 X129.785 Y81.516 E0.00641
G1 X148.267 Y99.997 E0.82059
G1 X148.084 Y100.157 E0.00760
G1 X147.997 Y100.262 E0.00429
G1 X129.511 Y81.775 E0.82080
G1 X129.298 Y82.096 E0.01210
G1 X147.754 Y100.553 E0.81948
G1 X147.674 Y100.650 E0.00397
G1 X147.541 Y100.874 E0.00816
G1 X129.147 Y82.480 E0.81670
M73 P3 R97
